!!!!SEGMENT: pl-cz--iii-204--001_engel-jan--offertorium-1.krn
!!!cenid: 17xx:191
!!!COM: Engel, Jan
!!!COM-rismID:
!!!CDT: <1772->1788
!!!CNT:
!!!OTL: Offertorium - 1
!!!PDT:
!!!AGN: Sacred
!!!SMS-siglum: PL-CZ
!!!SMS-shelfmark: III-204
!!!SMS-shelfwork: 001 W
!!!NIFC-rismSourceID:
!!!NIFC-islandoraID: pl-cz:36504
!!!URL-pdf-islandora: https://repozytorium.nifc.pl/islandora/object/pl-cz%3A36504/datastream/PDF/view
!!!URL-scan:
!!!ONB-nifc: UWAGA: części Offertorium: I, II, III, IV
!!!AIN: 1 alto 4 empty 1 tenor 2 violn 1 vox
!!!key:
**kern	**dynam	**kern	**text	**dynam	**kern	**text	**dynam	**kern	**text	**dynam	**kern	**text	**dynam	**kern	**dynam	**kern	**dynam	**kern	**dynam	**kern	**dynam
*part9	*part9	*part8	*part8	*part8	*part7	*part7	*part7	*part6	*part6	*part6	*part5	*part5	*part5	*part4	*part4	*part3	*part3	*part2	*part2	*part1	*part1
*staff9	*	*staff8	*staff8	*	*staff7	*staff7	*	*staff6	*staff6	*	*staff5	*staff5	*	*staff4	*	*staff3	*	*staff2	*	*staff1	*
*group4	*	*group3	*	*	*group3	*	*	*group3	*	*	*group3	*	*	*group2	*	*group2	*	*group1	*	*group1	*
*Iempty	*	*Iempty	*	*	*Itenor	*	*	*Ialto	*	*	*Ivox	*	*	*Ivioln	*	*Ivioln	*	*Iempty	*	*Iempty	*
*I"Baſso	*	*I"Baſso	*	*	*I"Tenore	*	*	*I"Alto	*	*	*I"Canto	*	*	*I"Violino secondo	*	*I"Violino primo	*	*I"Cornu IIdo in D	*	*I"Cornu Primo in D	*
*I'Bc	*	*I'B	*	*	*I'T	*	*	*I'A	*	*	*I'C	*	*	*I'Vn II	*	*I'Vn I	*	*I'Cor II	*	*I'Cor I	*
*clefF4	*	*clefF4	*	*	*clefC4	*	*	*clefC3	*	*	*clefC1	*	*	*clefG2	*	*clefG2	*	*clefG2	*	*clefG2	*
*	*	*	*	*	*	*	*	*	*	*	*	*	*	*	*	*	*	*ITrd-1c-2	*	*ITrd-1c-2	*
*k[f#c#]	*	*k[f#c#]	*	*	*k[f#c#]	*	*	*k[f#c#]	*	*	*k[f#c#]	*	*	*k[f#c#]	*	*k[f#c#]	*	*k[f#c#]	*	*k[f#c#]	*
*D:	*	*D:	*	*	*D:	*	*	*D:	*	*	*D:	*	*	*D:	*	*D:	*	*	*	*	*
*M3/4	*	*M3/4	*	*	*M3/4	*	*	*M3/4	*	*	*M3/4	*	*	*M3/4	*	*M3/4	*	*M3/4	*	*M3/4	*
=1	=1	=1	=1	=1	=1	=1	=1	=1	=1	=1	=1	=1	=1	=1	=1	=1	=1	=1	=1	=1	=1
*	*	*	*	*	*	*	*below	*	*	*below	*	*	*	*	*	*	*	*	*	*	*below
!LO:TX:a:B:t=Allegro	!	!LO:TX:a:B:t=Allegro	!	!	!LO:TX:a:B:t=Allegro	!	!	!LO:TX:a:B:t=Allegro	!	!	!LO:TX:a:B:t=Allegro	!	!	!LO:TX:a:B:t=Allegro	!	!LO:TX:a:B:t=Allegro	!	!LO:TX:a:B:t=Allegro	!	!LO:TX:a:B:t=Allegro	!
!LO:TX:a:t=problem:mixed beam	!	!LO:N:vis=0	!	!	!	!	!	!	!	!	!	!	!	!LO:TX:a:t=problem:mixed beam	!	!LO:TX:a:t=problem:mixed beam	!	!LO:TX:a:t=problem:mixed beam	!	!LO:TX:a:t=problem:mixed beam	!
8d\L	f	1.r	.	.	2.r	.	.	2.r	.	.	2.r	.	.	8dd'\L	f	8dd'\L	f	8dd'\L	.	8dd'\L	.
8D/	.	.	.	.	.	.	.	.	.	.	.	.	.	8d'/	.	8d'/	.	8d'/	.	8d'/	.
8F#/	.	.	.	.	.	.	.	.	.	.	.	.	.	8f#'/	.	8f#'/	.	8f#'/	.	8f#'/	.
8D/	.	.	.	.	.	.	.	.	.	.	.	.	.	8d'/	.	8d'/	.	8d'/	.	8d'/	.
8A/	.	.	.	.	.	.	.	.	.	.	.	.	.	8a'/	.	8a'/	.	8a'/	.	8a'/	.
8F#/J	.	.	.	.	.	.	.	.	.	.	.	.	.	8f#'/J	.	8f#'/J	.	8f#'/J	.	8f#'/J	.
=2	=2	=2	=2	=2	=2	=2	=2	=2	=2	=2	=2	=2	=2	=2	=2	=2	=2	=2	=2	=2	=2
*	*	*	*	*	*	*	*	*	*	*	*	*	*	*tremolo	*	*	*	*	*	*2\right	*
4D\	.	.	.	.	4r	.	.	4r	.	.	4r	.	.	16A/LL 16f#	.	8dd'\L	.	2.d/	.	2.dd\	.
.	.	.	.	.	.	.	.	.	.	.	.	.	.	16A/ 16f#	.	.	.	.	.	.	.
.	.	.	.	.	.	.	.	.	.	.	.	.	.	16A/ 16f#	.	8a'\	.	.	.	.	.
.	.	.	.	.	.	.	.	.	.	.	.	.	.	16A/ 16f#	.	.	.	.	.	.	.
4D\	.	.	.	.	4f#\	Lau-	.	4a\	Lau-	.	4dd\	{Lau-	.	16A/ 16f#	.	8ff#'\	.	.	.	.	.
.	.	.	.	.	.	.	.	.	.	.	.	.	.	16A/ 16f#	.	.	.	.	.	.	.
.	.	.	.	.	.	.	.	.	.	.	.	.	.	16A/ 16f#	.	8dd'\	.	.	.	.	.
.	.	.	.	.	.	.	.	.	.	.	.	.	.	16A/ 16f#	.	.	.	.	.	.	.
4D\	.	.	.	.	4f#\	-da	.	4a\	-da	.	4dd\	-da}	.	16A/ 16f#	.	8aa'\	.	.	.	.	.
.	.	.	.	.	.	.	.	.	.	.	.	.	.	16A/ 16f#	.	.	.	.	.	.	.
.	.	.	.	.	.	.	.	.	.	.	.	.	.	16A/ 16f#	.	8ff#'\J	.	.	.	.	.
.	.	.	.	.	.	.	.	.	.	.	.	.	.	16A/JJ 16f#	.	.	.	.	.	.	.
=3	=3	=3	=3	=3	=3	=3	=3	=3	=3	=3	=3	=3	=3	=3	=3	=3	=3	=3	=3	=3	=3
*	*	*2\right	*	*	*2\right	*	*	*2\right	*	*	*2\right	*	*	*	*	*	*	*	*	*	*
!	!	!	!	!	!	!	!	!	!	!	!	!	!	!LO:TX:a:t=problem:mixed beam	!	!LO:TX:a:t=problem:mixed beam	!	!	!	!	!
8d\L	.	4r	.	.	2g\	lau-	.	2b\	{lau-	.	2dd\	lau-	.	8dd'\L	.	8dd'\L	.	2.d/	.	2.dd\	.
8D\	.	.	.	.	.	.	.	.	.	.	.	.	.	8d'/	.	8d'/	.	.	.	.	.
8G\	.	4G\	Lau-	.	.	.	.	.	.	.	.	.	.	8g'/	.	8g'/	.	.	.	.	.
8D\	.	.	.	.	.	.	.	.	.	.	.	.	.	8d'/	.	8d'/	.	.	.	.	.
8B\	.	4G\	-da	.	4g\	-da	.	4b\	-da}	.	4dd\	-da	.	8b'/	.	8b'/	.	.	.	.	.
8G\J	.	.	.	.	.	.	.	.	.	.	.	.	.	8g'/J	.	8g'/J	.	.	.	.	.
=4	=4	=4	=4	=4	=4	=4	=4	=4	=4	=4	=4	=4	=4	=4	=4	=4	=4	=4	=4	=4	=4
!	!	!	!	!	!	!	!	!	!	!	!	!	!	!	!	!LO:LB:g=original	!	!	!	!	!
4D\	.	2G\	Si-	.	2B\	Si-	.	2g\	Sÿ-	.	2dd\	Si-	.	16B/LL 16g	.	8dd\L	.	2.d/	.	2.dd\	.
.	.	.	.	.	.	.	.	.	.	.	.	.	.	16B/ 16g	.	.	.	.	.	.	.
.	.	.	.	.	.	.	.	.	.	.	.	.	.	16B/ 16g	.	8b\	.	.	.	.	.
.	.	.	.	.	.	.	.	.	.	.	.	.	.	16B/ 16g	.	.	.	.	.	.	.
4D\	.	.	.	.	.	.	.	.	.	.	.	.	.	16B/ 16g	.	8gg\	.	.	.	.	.
.	.	.	.	.	.	.	.	.	.	.	.	.	.	16B/ 16g	.	.	.	.	.	.	.
.	.	.	.	.	.	.	.	.	.	.	.	.	.	16B/ 16g	.	8dd\	.	.	.	.	.
.	.	.	.	.	.	.	.	.	.	.	.	.	.	16B/ 16g	.	.	.	.	.	.	.
4D\	.	4G\	-on	.	4B\	-on	.	4g\	-on	.	4dd\	-on	.	16B/ 16g	.	8bb\	.	.	.	.	.
.	.	.	.	.	.	.	.	.	.	.	.	.	.	16B/ 16g	.	.	.	.	.	.	.
.	.	.	.	.	.	.	.	.	.	.	.	.	.	16B/ 16g	.	8gg\J	.	.	.	.	.
.	.	.	.	.	.	.	.	.	.	.	.	.	.	16B/JJ 16g	.	.	.	.	.	.	.
=5	=5	=5	=5	=5	=5	=5	=5	=5	=5	=5	=5	=5	=5	=5	=5	=5	=5	=5	=5	=5	=5
*	*	*	*	*	*	*	*	*	*	*	*	*	*	*	*	*	*	*2\right	*	*	*
!LO:LB:g=original	!	!	!	!	!LO:LB:g=original	!	!	!LO:LB:g=original	!	!	!LO:LB:g=original	!	!	!LO:LB:g=original	!	!LO:TX:a:t=problem:mixed beam	!	!	!	!	!
!LO:TX:a:t=problem:mixed beam	!	!	!	!	!	!	!	!	!	!	!	!	!	!LO:TX:a:t=problem:mixed beam	!	!	!	!	!	!	!
8c#\L	.	2E\	Sal-	.	2c#\	Sal-	.	2a\	Sal-	.	2ee\	Sal-	.	8cc#'\L	.	8ee'\L	.	2.ee\	.	2.ee\	.
8C#/	.	.	.	.	.	.	.	.	.	.	.	.	.	8c#'/	.	8c#'/	.	.	.	.	.
8E/	.	.	.	.	.	.	.	.	.	.	.	.	.	8e'/	.	8e'/	.	.	.	.	.
8C#/	.	.	.	.	.	.	.	.	.	.	.	.	.	8c#'/	.	8c#'/	.	.	.	.	.
8G/	.	4E\	-va-	.	4c#\	-va-	.	4a\	-va-	.	4ee\	-va-	.	8g'/	.	8g'/	.	.	.	.	.
8E/J	.	.	.	.	.	.	.	.	.	.	.	.	.	8e'/J	.	8e'/J	.	.	.	.	.
=6	=6	=6	=6	=6	=6	=6	=6	=6	=6	=6	=6	=6	=6	=6	=6	=6	=6	=6	=6	=6	=6
!	!	!LO:LB:g=original	!	!	!	!	!	!	!	!	!	!	!	!	!	!	!	!	!	!	!
4C#/	.	2A\	-to-	.	2.c#\	-to-	.	2.a\	-to-	.	2.ee\	-to-	.	16A/LL 16e	.	8cc#\L	.	2.a/	.	2.ee\	.
.	.	.	.	.	.	.	.	.	.	.	.	.	.	16A/ 16e	.	.	.	.	.	.	.
.	.	.	.	.	.	.	.	.	.	.	.	.	.	16A/ 16e	.	8g\	.	.	.	.	.
.	.	.	.	.	.	.	.	.	.	.	.	.	.	16A/ 16e	.	.	.	.	.	.	.
4C#/	.	.	.	.	.	.	.	.	.	.	.	.	.	16A/ 16e	.	8ee\	.	.	.	.	.
.	.	.	.	.	.	.	.	.	.	.	.	.	.	16A/ 16e	.	.	.	.	.	.	.
.	.	.	.	.	.	.	.	.	.	.	.	.	.	16A/ 16e	.	8cc#\	.	.	.	.	.
.	.	.	.	.	.	.	.	.	.	.	.	.	.	16A/ 16e	.	.	.	.	.	.	.
4C#/	.	4AA/	.	.	.	.	.	.	.	.	.	.	.	16A/ 16e	.	8gg\	.	.	.	.	.
.	.	.	.	.	.	.	.	.	.	.	.	.	.	16A/ 16e	.	.	.	.	.	.	.
.	.	.	.	.	.	.	.	.	.	.	.	.	.	16A/ 16e	.	8ee\J	.	.	.	.	.
.	.	.	.	.	.	.	.	.	.	.	.	.	.	16A/JJ 16e	.	.	.	.	.	.	.
*	*	*	*	*	*	*	*	*	*	*	*	*	*	*Xtremolo	*	*	*	*	*	*	*
=7	=7	=7	=7	=7	=7	=7	=7	=7	=7	=7	=7	=7	=7	=7	=7	=7	=7	=7	=7	=7	=7
!	!	!	!	!	!	!	!	!	!	!	!	!	!	!	!	!	!	!	!	!LO:TX:a:t=problem:wszystkie ćwierćnuty nają ogonki na środku	!
8D/L	.	4D\	-rem	.	4d\	-rem	.	4a\	-rem	.	4ff#\	-rem	.	16f#/LL	.	4d/ 4a 4ff#	.	4f#/	.	4dd\	.
.	.	.	.	.	.	.	.	.	.	.	.	.	.	16a/	.	.	.	.	.	.	.
8AA/	.	.	.	.	.	.	.	.	.	.	.	.	.	16f#/	.	.	.	.	.	.	.
.	.	.	.	.	.	.	.	.	.	.	.	.	.	16a/JJ	.	.	.	.	.	.	.
8D/	.	4r	.	.	4r	.	.	4r	.	.	4r	.	.	16f#/LL	.	8r	.	4f#/	.	4dd\	.
.	.	.	.	.	.	.	.	.	.	.	.	.	.	16a/	.	.	.	.	.	.	.
8AA/	.	.	.	.	.	.	.	.	.	.	.	.	.	16f#/	.	4ddd\	.	.	.	.	.
.	.	.	.	.	.	.	.	.	.	.	.	.	.	16a/JJ	.	.	.	.	.	.	.
8D/	.	4r	.	.	4r	.	.	4r	.	.	4r	.	.	16f#/LL	.	.	.	4r	.	4r	.
.	.	.	.	.	.	.	.	.	.	.	.	.	.	16a/	.	.	.	.	.	.	.
8AA/J	.	.	.	.	.	.	.	.	.	.	.	.	.	16f#/	.	8ff#\	.	.	.	.	.
.	.	.	.	.	.	.	.	.	.	.	.	.	.	16a/JJ	.	.	.	.	.	.	.
=8	=8	=8	=8	=8	=8	=8	=8	=8	=8	=8	=8	=8	=8	=8	=8	=8	=8	=8	=8	=8	=8
!	!	!	!	!	!	!	!	!	!	!	!	!	!	!	!	!	!	!LO:LB:g=original	!	!LO:LB:g=original	!
8C#/L	.	4r	.	.	4r	.	.	4r	.	.	4r	.	.	16g/LL	.	4ff#\	.	4dd\	.	4ff#\	.
.	.	.	.	.	.	.	.	.	.	.	.	.	.	16a/	.	.	.	.	.	.	.
8AA/	.	.	.	.	.	.	.	.	.	.	.	.	.	16g/	.	.	.	.	.	.	.
.	.	.	.	.	.	.	.	.	.	.	.	.	.	16a/JJ	.	.	.	.	.	.	.
*	*	*	*	*	*	*	*	*	*	*	*	*	*	*rep	*	*	*	*	*	*	*
8C#/	.	4A\	lau-	.	4A\	lau-	.	4cc#\	Lau-	.	4ee\	Lau-	.	16g/LL	.	8.ee\L	.	4a/	.	4ee\	.
.	.	.	.	.	.	.	.	.	.	.	.	.	.	16a/	.	.	.	.	.	.	.
8AA/	.	.	.	.	.	.	.	.	.	.	.	.	.	16g/	.	.	.	.	.	.	.
.	.	.	.	.	.	.	.	.	.	.	.	.	.	16a/JJ	.	16ff#\	.	.	.	.	.
*	*	*	*	*	*	*	*	*	*	*	*	*	*	*Xrep	*	*	*	*	*	*	*
*	*	*	*	*	*	*	*	*	*	*	*	*	*	*rep	*	*	*	*	*	*	*
8C#/	.	4A\	-da	.	4A\	-da	.	4cc#\	-da	.	4ee\	-da	.	16g/LL	.	8.gg\	.	4r	.	4r	.
.	.	.	.	.	.	.	.	.	.	.	.	.	.	16a/	.	.	.	.	.	.	.
8AA/J	.	.	.	.	.	.	.	.	.	.	.	.	.	16g/	.	.	.	.	.	.	.
.	.	.	.	.	.	.	.	.	.	.	.	.	.	16a/JJ	.	16aa\Jk	.	.	.	.	.
*	*	*	*	*	*	*	*	*	*	*	*	*	*	*Xrep	*	*	*	*	*	*	*
=9	=9	=9	=9	=9	=9	=9	=9	=9	=9	=9	=9	=9	=9	=9	=9	=9	=9	=9	=9	=9	=9
8D/L	.	4d\	du-	.	4A\	du-	.	4dd\	du-	.	4ff#\	du-	.	16f#/LL	.	4d/ 4a 4ff#	.	4f#/	.	4dd\	.
.	.	.	.	.	.	.	.	.	.	.	.	.	.	16a/	.	.	.	.	.	.	.
8AA/	.	.	.	.	.	.	.	.	.	.	.	.	.	16f#/	.	.	.	.	.	.	.
.	.	.	.	.	.	.	.	.	.	.	.	.	.	16a/JJ	.	.	.	.	.	.	.
*	*	*	*	*	*	*	*	*	*	*	*	*	*	*rep	*	*	*	*	*	*	*
8D/	.	4D/	-cem	.	4A\	-cem	.	4dd\	-cem	.	4ff#\	-cem	.	16f#/LL	.	8r	.	4f#/	.	4dd\	.
.	.	.	.	.	.	.	.	.	.	.	.	.	.	16a/	.	.	.	.	.	.	.
8AA/	.	.	.	.	.	.	.	.	.	.	.	.	.	16f#/	.	4ddd\	.	.	.	.	.
.	.	.	.	.	.	.	.	.	.	.	.	.	.	16a/JJ	.	.	.	.	.	.	.
*	*	*	*	*	*	*	*	*	*	*	*	*	*	*Xrep	*	*	*	*	*	*	*
*	*	*	*	*	*	*	*	*	*	*	*	*	*	*rep	*	*	*	*	*	*	*
8D/	.	4r	.	.	4r	.	.	4r	.	.	4r	.	.	16f#/LL	.	.	.	4r	.	4r	.
.	.	.	.	.	.	.	.	.	.	.	.	.	.	16a/	.	.	.	.	.	.	.
8AA/J	.	.	.	.	.	.	.	.	.	.	.	.	.	16f#/	.	8ff#\	.	.	.	.	.
.	.	.	.	.	.	.	.	.	.	.	.	.	.	16a/JJ	.	.	.	.	.	.	.
*	*	*	*	*	*	*	*	*	*	*	*	*	*	*Xrep	*	*	*	*	*	*	*
=10	=10	=10	=10	=10	=10	=10	=10	=10	=10	=10	=10	=10	=10	=10	=10	=10	=10	=10	=10	=10	=10
!	!	!	!	!	!	!	!	!	!	!	!	!	!	!LO:LB:g=original	!	!LO:LB:g=original	!	!	!	!	!
8C#/L	.	4r	.	.	4r	.	.	4r	.	.	4r	.	.	16g/LL	.	4ff#\	.	4dd\	.	4ff#\	.
.	.	.	.	.	.	.	.	.	.	.	.	.	.	16a/	.	.	.	.	.	.	.
8AA/	.	.	.	.	.	.	.	.	.	.	.	.	.	16g/	.	.	.	.	.	.	.
.	.	.	.	.	.	.	.	.	.	.	.	.	.	16a/JJ	.	.	.	.	.	.	.
*	*	*	*	*	*	*	*	*	*	*	*	*	*	*rep	*	*	*	*	*	*	*
8C#/	.	4A\	et	.	4c#\	et	.	4a\	et	.	4ee\	et	.	16g/LL	.	8.ee\L	.	4a/	.	4ee\	.
.	.	.	.	.	.	.	.	.	.	.	.	.	.	16a/	.	.	.	.	.	.	.
8AA/	.	.	.	.	.	.	.	.	.	.	.	.	.	16g/	.	.	.	.	.	.	.
.	.	.	.	.	.	.	.	.	.	.	.	.	.	16a/JJ	.	16ff#\	.	.	.	.	.
*	*	*	*	*	*	*	*	*	*	*	*	*	*	*Xrep	*	*	*	*	*	*	*
*	*	*	*	*	*	*	*	*	*	*	*	*	*	*rep	*	*	*	*	*	*	*
8C#/	.	4A\	Pa-	.	4c#\	Pa-	.	4a\	Pa-	.	4ee\	Pa-	.	16g/LL	.	8.gg\	.	4r	.	4r	.
.	.	.	.	.	.	.	.	.	.	.	.	.	.	16a/	.	.	.	.	.	.	.
8AA/J	.	.	.	.	.	.	.	.	.	.	.	.	.	16g/	.	.	.	.	.	.	.
.	.	.	.	.	.	.	.	.	.	.	.	.	.	16a/JJ	.	16aa\Jk	.	.	.	.	.
*	*	*	*	*	*	*	*	*	*	*	*	*	*	*Xrep	*	*	*	*	*	*	*
=11	=11	=11	=11	=11	=11	=11	=11	=11	=11	=11	=11	=11	=11	=11	=11	=11	=11	=11	=11	=11	=11
!	!LO:DY:t=piani	!	!	!	!LO:LB:g=original	!	!	!	!	!	!	!	!	!	!	!	!	!	!	!	!
4D\	p	4d\	-sto-	.	4d\	-sto-	.	4a\	-sto-	.	4ff#\	-sto-	.	4A/ 4f#	.	4d/ 4a 4ff#	.	4f#/	.	4dd\	.
4F#\	.	4D/	-rem	.	4d\	-rem	.	4a\	-rem	.	4ff#\	-rem	.	8r	.	8r	.	4f#/	.	4dd\	.
!	!	!	!	!	!	!	!	!	!	!	!	!	!	!	!	!	!LO:DY:t=piano	!	!	!	!
.	.	.	.	.	.	.	.	.	.	.	.	.	.	4ff#\	p	4ddd\	p	.	.	.	.
4D\	.	4r	.	.	4r	.	.	4r	.	.	4r	.	.	.	.	.	.	4r	.	4r	.
.	.	.	.	.	.	.	.	.	.	.	.	.	.	8dd\	.	8ff#\	.	.	.	.	.
=12	=12	=12	=12	=12	=12	=12	=12	=12	=12	=12	=12	=12	=12	=12	=12	=12	=12	=12	=12	=12	=12
!LO:LB:g=original	!	!LO:N:vis=00	!	!	!LO:N:vis=0	!	!	!	!	!	!LO:LB:g=original	!	!	!	!	!	!	!LO:N:vis=00	!	!LO:N:vis=00	!
4AA/	.	0.r	.	.	1.r	.	.	4r	.	.	4r	.	.	(8dd\L	.	(8ff#\L	.	0.r	.	0.r	.
.	.	.	.	.	.	.	.	.	.	.	.	.	.	8cc#\J)	.	8ee\J)	.	.	.	.	.
!	!	!	!	!	!	!	!	!	!	!LO:DY:t=pia	!	!	!	!	!	!	!	!	!	!	!
!	!	!	!	!	!	!	!	!	!	!LO:DY:b	!	!	!	!	!	!	!	!	!	!	!
4c#\	.	.	.	.	.	.	.	2cc#\	in	p	2ee\	in	.	8r	.	8r	.	.	.	.	.
.	.	.	.	.	.	.	.	.	.	.	.	.	.	4ee\	.	4ccc#\	.	.	.	.	.
4A#X\	.	.	.	.	.	.	.	.	.	.	.	.	.	.	.	.	.	.	.	.	.
.	.	.	.	.	.	.	.	.	.	.	.	.	.	8cc#\	.	8ee\	.	.	.	.	.
=13	=13	=13	=13	=13	=13	=13	=13	=13	=13	=13	=13	=13	=13	=13	=13	=13	=13	=13	=13	=13	=13
!	!	!	!	!	!	!	!	!LO:LB:g=original	!	!	!	!	!	!	!	!	!	!	!	!	!
4B\	.	.	.	.	.	.	.	(8cc#\L	Hy-	.	(8ee\L	Hy-	.	(8cc#\L	.	(8ee\L	.	.	.	.	.
.	.	.	.	.	.	.	.	8b\J)	.	.	8dd\J)	.	.	8b\J)	.	8dd\J)	.	.	.	.	.
4G#X\	.	.	.	.	.	.	.	2b\	-mnis	.	2dd\	-mnis	.	8r	.	8r	.	.	.	.	.
.	.	.	.	.	.	.	.	.	.	.	.	.	.	4dd\	.	(4bb\	.	.	.	.	.
4E\	.	.	.	.	.	.	.	.	.	.	.	.	.	.	.	.	.	.	.	.	.
.	.	.	.	.	.	.	.	.	.	.	.	.	.	8b\	.	8dd\)	.	.	.	.	.
=14	=14	=14	=14	=14	=14	=14	=14	=14	=14	=14	=14	=14	=14	=14	=14	=14	=14	=14	=14	=14	=14
4A\	.	.	.	.	2.r	.	.	(8b\L	et	.	(8dd\L	et	.	(8b\L	.	(8dd\L	.	.	.	.	.
.	.	.	.	.	.	.	.	8a\J)	.	.	8cc#\J)	.	.	8a\J)	.	8cc#\J)	.	.	.	.	.
4F#\	.	.	.	.	.	.	.	4.a\	can-	.	4.cc#\	can-	.	8r	.	8r	.	.	.	.	.
.	.	.	.	.	.	.	.	.	.	.	.	.	.	4cc#\	.	4aa\	.	.	.	.	.
4D#X\	.	.	.	.	.	.	.	.	.	.	.	.	.	.	.	.	.	.	.	.	.
.	.	.	.	.	.	.	.	8a\	-ti-	.	8cc#\	-ti-	.	8a\	.	8cc#\	.	.	.	.	.
=15	=15	=15	=15	=15	=15	=15	=15	=15	=15	=15	=15	=15	=15	=15	=15	=15	=15	=15	=15	=15	=15
.	.	.	.	.	.	.	.	.	.	.	8qqcc#/	.	.	.	.	.	.	.	.	.	.
4E\	.	.	.	.	4r	.	.	4g#X\	-cis	.	4b\	-cis	.	(8a/L	.	(8cc#\L	.	.	.	.	.
.	.	.	.	.	.	.	.	.	.	.	.	.	.	8g#X/J)	.	8b\J)	.	.	.	.	.
!	!	!	!	!	!	!	!LO:DY:b	!	!	!	!	!	!	!	!	!	!	!	!	!	!
4EE/	.	.	.	.	4e\	Lau-	f	4r	.	.	4r	.	.	4r	.	8r	.	.	.	.	.
.	.	.	.	.	.	.	.	.	.	.	.	.	.	.	.	8ee\L	.	.	.	.	.
4r	.	.	.	.	4e\	-da	.	4r	.	.	4r	.	.	4r	.	8ee\	.	.	.	.	.
.	.	.	.	.	.	.	.	.	.	.	.	.	.	.	.	8ee\J	.	.	.	.	.
=16	=16	=16	=16	=16	=16	=16	=16	=16	=16	=16	=16	=16	=16	=16	=16	=16	=16	=16	=16	=16	=16
*	*	*	*	*	*	*	*	*	*	*	*	*	*	*tremolo	*	*	*	*	*	*	*
!	!	!LO:LB:g=original	!	!	!	!	!	!	!	!	!	!	!	!LO:LB:g=original	!	!LO:LB:g=original	!LO:DY:t=forte	!	!	!	!
8G#X\L	f	4r	.	.	2e\	Si-	.	2.r	.	.	2.r	.	.	16e/LL	f	4ee\	f	4r	.	4r	.
.	.	.	.	.	.	.	.	.	.	.	.	.	.	16e/	.	.	.	.	.	.	.
8E\	.	.	.	.	.	.	.	.	.	.	.	.	.	16e/	.	.	.	.	.	.	.
.	.	.	.	.	.	.	.	.	.	.	.	.	.	16e/	.	.	.	.	.	.	.
8G#\	.	4e\	lau-	.	.	.	.	.	.	.	.	.	.	16e/	.	4e/ 4b 4ee	.	4ee\	.	4ee\	.
.	.	.	.	.	.	.	.	.	.	.	.	.	.	16e/	.	.	.	.	.	.	.
8E\	.	.	.	.	.	.	.	.	.	.	.	.	.	16e/	.	.	.	.	.	.	.
.	.	.	.	.	.	.	.	.	.	.	.	.	.	16e/	.	.	.	.	.	.	.
8G#\	.	4e\	-da	.	4e\	-on	.	.	.	.	.	.	.	16e/	.	4e/ 4b 4ee	.	4ee\	.	4ee\	.
.	.	.	.	.	.	.	.	.	.	.	.	.	.	16e/	.	.	.	.	.	.	.
8E\J	.	.	.	.	.	.	.	.	.	.	.	.	.	16e/	.	.	.	.	.	.	.
.	.	.	.	.	.	.	.	.	.	.	.	.	.	16e/JJ	.	.	.	.	.	.	.
=17	=17	=17	=17	=17	=17	=17	=17	=17	=17	=17	=17	=17	=17	=17	=17	=17	=17	=17	=17	=17	=17
!	!	!	!	!	!LO:N:vis=0	!	!	!	!	!	!	!	!	!	!LO:DY:t=pia	!	!	!	!	!	!
8G\L	.	4e\	lau-	.	1.r	.	.	4r	.	.	4r	.	.	16e/LL	p	4e/ 4b 4ee	.	4ee\	.	4ee\	.
.	.	.	.	.	.	.	.	.	.	.	.	.	.	16e/	.	.	.	.	.	.	.
8E\	.	.	.	.	.	.	.	.	.	.	.	.	.	16e/	.	.	.	.	.	.	.
.	.	.	.	.	.	.	.	.	.	.	.	.	.	16e/	.	.	.	.	.	.	.
!	!	!	!	!	!	!	!	!	!	!LO:DY:b	!	!	!	!	!	!	!	!	!	!	!
!	!	!	!	!	!	!	!	!	!	!LO:DY:t=forte	!	!	!	!	!	!	!	!	!	!	!
8G\	.	4e\	-da	.	.	.	.	4g#X\	lau-	f	4b\	lau-	.	16e/	.	8r	.	4r	.	4r	.
.	.	.	.	.	.	.	.	.	.	.	.	.	.	16e/	.	.	.	.	.	.	.
!	!	!	!	!	!	!	!	!	!	!	!	!	!	!	!	!	!LO:DY:t=pia	!	!	!	!
8E\	.	.	.	.	.	.	.	.	.	.	.	.	.	16e/	.	(16b\LL	p	.	.	.	.
.	.	.	.	.	.	.	.	.	.	.	.	.	.	16e/	.	16cc#\JJ)	.	.	.	.	.
.	.	.	.	.	.	.	.	.	.	.	.	.	.	.	.	8qqee/	.	.	.	.	.
8G\	.	4r	.	.	.	.	.	4g#\	-da	.	4b\	-da	.	16e/	.	8dd\L	.	4r	.	4r	.
.	.	.	.	.	.	.	.	.	.	.	.	.	.	16e/	.	.	.	.	.	.	.
8E\J	.	.	.	.	.	.	.	.	.	.	.	.	.	16e/	.	(16cc#\L	.	.	.	.	.
.	.	.	.	.	.	.	.	.	.	.	.	.	.	16e/JJ	.	16b\JJ)	.	.	.	.	.
=18	=18	=18	=18	=18	=18	=18	=18	=18	=18	=18	=18	=18	=18	=18	=18	=18	=18	=18	=18	=18	=18
*	*	*	*	*	*	*	*	*	*	*	*	*	*	*	*	*2\right	*	*	*	*	*
!	!LO:DY:t=pia	!LO:N:vis=0	!	!	!	!	!	!	!	!	!	!	!	!	!	!	!	!LO:N:vis=0	!	!LO:N:vis=0	!
8A\L	p	1.r	.	.	.	.	.	2a\	Si-	.	2cc#\	Si-	.	16e/LL	.	2cc#\	.	1.r	.	1.r	.
.	.	.	.	.	.	.	.	.	.	.	.	.	.	16e/	.	.	.	.	.	.	.
8E\	.	.	.	.	.	.	.	.	.	.	.	.	.	16e/	.	.	.	.	.	.	.
.	.	.	.	.	.	.	.	.	.	.	.	.	.	16e/	.	.	.	.	.	.	.
8A\	.	.	.	.	.	.	.	.	.	.	.	.	.	16e/	.	.	.	.	.	.	.
.	.	.	.	.	.	.	.	.	.	.	.	.	.	16e/	.	.	.	.	.	.	.
8E\	.	.	.	.	.	.	.	.	.	.	.	.	.	16e/	.	.	.	.	.	.	.
.	.	.	.	.	.	.	.	.	.	.	.	.	.	16e/	.	.	.	.	.	.	.
.	.	.	.	.	.	.	.	.	.	.	.	.	.	.	.	8qqee/	.	.	.	.	.
8B\	.	.	.	.	.	.	.	4b\	-on	.	4dd\	-on	.	16e/	.	8dd\L	.	.	.	.	.
.	.	.	.	.	.	.	.	.	.	.	.	.	.	16e/	.	.	.	.	.	.	.
8E\J	.	.	.	.	.	.	.	.	.	.	.	.	.	16e/	.	16cc#\L	.	.	.	.	.
.	.	.	.	.	.	.	.	.	.	.	.	.	.	16e/JJ	.	16dd\JJ	.	.	.	.	.
=19	=19	=19	=19	=19	=19	=19	=19	=19	=19	=19	=19	=19	=19	=19	=19	=19	=19	=19	=19	=19	=19
!LO:LB:g=original	!	!	!	!	!	!	!	!	!	!	!LO:LB:g=original	!	!	!	!	!	!	!	!	!	!
8c#\L	.	.	.	.	4r	.	.	(4cc#\	Sal-	.	(4ee\	Sal-	.	16e/LL	.	(8ee\L	.	.	.	.	.
.	.	.	.	.	.	.	.	.	.	.	.	.	.	16e/	.	.	.	.	.	.	.
8E\	.	.	.	.	.	.	.	.	.	.	.	.	.	16e/	.	16ff#\L	.	.	.	.	.
.	.	.	.	.	.	.	.	.	.	.	.	.	.	16e/	.	16ee\JJ)	.	.	.	.	.
8B\	.	.	.	.	4e\	lau-	.	4b\)	.	.	4dd\	.	.	16e/	.	(8dd\L	.	.	.	.	.
.	.	.	.	.	.	.	.	.	.	.	.	.	.	16e/	.	.	.	.	.	.	.
8E\	.	.	.	.	.	.	.	.	.	.	.	.	.	16e/	.	16ee\L	.	.	.	.	.
.	.	.	.	.	.	.	.	.	.	.	.	.	.	16e/	.	16dd\JJ)	.	.	.	.	.
8A\	.	.	.	.	4e\	-da	.	4a\	-va-	.	4cc#\)	-va-	.	16e/	.	(8cc#\L	.	.	.	.	.
.	.	.	.	.	.	.	.	.	.	.	.	.	.	16e/	.	.	.	.	.	.	.
8E\J	.	.	.	.	.	.	.	.	.	.	.	.	.	16e/	.	16dd\L	.	.	.	.	.
.	.	.	.	.	.	.	.	.	.	.	.	.	.	16e/JJ	.	16cc#\JJ)	.	.	.	.	.
=20	=20	=20	=20	=20	=20	=20	=20	=20	=20	=20	=20	=20	=20	=20	=20	=20	=20	=20	=20	=20	=20
!	!	!	!	!	!LO:LB:g=original	!	!	!LO:LB:g=original	!	!	!	!	!	!	!	!	!LO:DY:t=forte	!	!	!	!
8G#X\L	f	4r	.	.	2e\	Du-	.	4g#X\	-to-	.	4b\	-to-	.	16e/LL	f	4b\	f	4r	.	4r	.
.	.	.	.	.	.	.	.	.	.	.	.	.	.	16e/	.	.	.	.	.	.	.
8E\	.	.	.	.	.	.	.	.	.	.	.	.	.	16e/	.	.	.	.	.	.	.
.	.	.	.	.	.	.	.	.	.	.	.	.	.	16e/	.	.	.	.	.	.	.
8G#\	.	4e\	lau-	.	.	.	.	4g#\	-rem	.	4b\	-rem	.	16e/	.	4e/ 4b 4ee	.	4ee\	.	4ee\	.
.	.	.	.	.	.	.	.	.	.	.	.	.	.	16e/	.	.	.	.	.	.	.
8E\	.	.	.	.	.	.	.	.	.	.	.	.	.	16e/	.	.	.	.	.	.	.
.	.	.	.	.	.	.	.	.	.	.	.	.	.	16e/	.	.	.	.	.	.	.
8G#\	.	4e\	-da	.	4e\	-cem	.	4r	.	.	4r	.	.	16e/	.	4e/ 4b 4ee	.	4ee\	.	4ee\	.
.	.	.	.	.	.	.	.	.	.	.	.	.	.	16e/	.	.	.	.	.	.	.
8E\J	.	.	.	.	.	.	.	.	.	.	.	.	.	16e/	.	.	.	.	.	.	.
.	.	.	.	.	.	.	.	.	.	.	.	.	.	16e/JJ	.	.	.	.	.	.	.
=21	=21	=21	=21	=21	=21	=21	=21	=21	=21	=21	=21	=21	=21	=21	=21	=21	=21	=21	=21	=21	=21
!	!	!	!	!	!LO:N:vis=0	!	!	!	!	!	!	!	!	!	!	!	!LO:DY:t=pia:	!	!	!LO:LB:g=original	!
8G\L	.	4e\	lau-	.	1.r	.	.	4r	.	.	4r	.	.	16e/LL	p	4e/ 4b 4ee	p	4ee\	.	4ee\	.
.	.	.	.	.	.	.	.	.	.	.	.	.	.	16e/	.	.	.	.	.	.	.
8E\	.	.	.	.	.	.	.	.	.	.	.	.	.	16e/	.	.	.	.	.	.	.
.	.	.	.	.	.	.	.	.	.	.	.	.	.	16e/	.	.	.	.	.	.	.
8G\	.	4e\	-da	.	.	.	.	4g#X\	Lau-	.	4b\	lau-	.	16e/	.	8r	.	4r	.	4r	.
.	.	.	.	.	.	.	.	.	.	.	.	.	.	16e/	.	.	.	.	.	.	.
8E\	.	.	.	.	.	.	.	.	.	.	.	.	.	16e/	.	16b\LL	.	.	.	.	.
.	.	.	.	.	.	.	.	.	.	.	.	.	.	16e/	.	16cc#\JJ	.	.	.	.	.
.	.	.	.	.	.	.	.	.	.	.	.	.	.	.	.	8qqee/	.	.	.	.	.
8G\	.	4r	.	.	.	.	.	4g#\	-da	.	4b\	-da	.	16e/	.	8dd\L	.	4r	.	4r	.
.	.	.	.	.	.	.	.	.	.	.	.	.	.	16e/	.	.	.	.	.	.	.
8E\J	.	.	.	.	.	.	.	.	.	.	.	.	.	16e/	.	16cc#\L	.	.	.	.	.
.	.	.	.	.	.	.	.	.	.	.	.	.	.	16e/JJ	.	16b\JJ	.	.	.	.	.
=22	=22	=22	=22	=22	=22	=22	=22	=22	=22	=22	=22	=22	=22	=22	=22	=22	=22	=22	=22	=22	=22
!	!	!LO:N:vis=0	!	!	!	!	!	!	!	!	!	!	!	!	!	!LO:LB:g=original	!	!LO:N:vis=0	!	!LO:N:vis=0	!
8A\L	p	1.r	.	.	.	.	.	2a\	Du-	.	2cc#\	Du-	.	16e/LL	.	2cc#\	.	1.r	.	1.r	.
.	.	.	.	.	.	.	.	.	.	.	.	.	.	16e/	.	.	.	.	.	.	.
8E\	.	.	.	.	.	.	.	.	.	.	.	.	.	16e/	.	.	.	.	.	.	.
.	.	.	.	.	.	.	.	.	.	.	.	.	.	16e/	.	.	.	.	.	.	.
8A\	.	.	.	.	.	.	.	.	.	.	.	.	.	16e/	.	.	.	.	.	.	.
.	.	.	.	.	.	.	.	.	.	.	.	.	.	16e/	.	.	.	.	.	.	.
8E\	.	.	.	.	.	.	.	.	.	.	.	.	.	16e/	.	.	.	.	.	.	.
.	.	.	.	.	.	.	.	.	.	.	.	.	.	16e/	.	.	.	.	.	.	.
!	!	!	!	!	!	!	!	!	!	!	!	!	!	!	!	!LO:TX:a:t=t	!	!	!	!	!
8B\	.	.	.	.	.	.	.	4b\	-cem	.	4dd\	-cem	.	16e/	.	4dd\	.	.	.	.	.
.	.	.	.	.	.	.	.	.	.	.	.	.	.	16e/	.	.	.	.	.	.	.
8E\J	.	.	.	.	.	.	.	.	.	.	.	.	.	16e/	.	.	.	.	.	.	.
.	.	.	.	.	.	.	.	.	.	.	.	.	.	16e/JJ	.	.	.	.	.	.	.
=23	=23	=23	=23	=23	=23	=23	=23	=23	=23	=23	=23	=23	=23	=23	=23	=23	=23	=23	=23	=23	=23
!	!	!	!	!	!	!	!	!LO:TX:a:t=problem:niewyraźnie rozpisany łuk	!	!	!LO:TX:a:t=problem:niewyraźnie rozpisany łuk	!	!	!	!	!	!	!	!	!	!
8c#\L	.	.	.	.	4r	.	.	(4cc#\	et	.	(4ee\	et	.	16e/LL	.	(8ee\L	.	.	.	.	.
.	.	.	.	.	.	.	.	.	.	.	.	.	.	16e/	.	.	.	.	.	.	.
8E\	.	.	.	.	.	.	.	.	.	.	.	.	.	16e/	.	16ff#\L	.	.	.	.	.
.	.	.	.	.	.	.	.	.	.	.	.	.	.	16e/	.	16ee\JJ)	.	.	.	.	.
8B\	.	.	.	.	4e\	lau-	.	4b\)	.	.	4dd\)	.	.	16e/	.	(8dd\L	.	.	.	.	.
.	.	.	.	.	.	.	.	.	.	.	.	.	.	16e/	.	.	.	.	.	.	.
8E\	.	.	.	.	.	.	.	.	.	.	.	.	.	16e/	.	16ee\L	.	.	.	.	.
.	.	.	.	.	.	.	.	.	.	.	.	.	.	16e/	.	16dd\JJ)	.	.	.	.	.
8A\	.	.	.	.	4e\	-da	.	4a\	Pa-	.	4cc#\	Pa-	.	16e/	.	(8cc#\L	.	.	.	.	.
.	.	.	.	.	.	.	.	.	.	.	.	.	.	16e/	.	.	.	.	.	.	.
8E\J	.	.	.	.	.	.	.	.	.	.	.	.	.	16e/	.	16dd\L	.	.	.	.	.
.	.	.	.	.	.	.	.	.	.	.	.	.	.	16e/JJ	.	16cc#\JJ)	.	.	.	.	.
*	*	*	*	*	*	*	*	*	*	*	*	*	*	*Xtremolo	*	*	*	*	*	*	*
=24	=24	=24	=24	=24	=24	=24	=24	=24	=24	=24	=24	=24	=24	=24	=24	=24	=24	=24	=24	=24	=24
!	!	!	!	!	!	!	!	!	!	!	!	!	!	!LO:TX:a:t=problem:mixed beam	!	!	!LO:DY:t=forte	!	!	!	!
8G#X\L	.	4e\	lau-	.	4e\	{lau-	.	4g#X\	-sto-	.	4b\	-sto-	.	16e/LL	f	4e/ 4b	f	4ee\	.	4ee\	.
.	.	.	.	.	.	.	.	.	.	.	.	.	.	16ee\	.	.	.	.	.	.	.
8E\	.	.	.	.	.	.	.	.	.	.	.	.	.	16e/	.	.	.	.	.	.	.
.	.	.	.	.	.	.	.	.	.	.	.	.	.	16ee\JJ	.	.	.	.	.	.	.
*	*	*	*	*	*	*	*	*	*	*	*	*	*	*rep	*	*	*	*	*	*	*
!	!	!	!	!	!	!	!	!	!	!	!	!	!	!LO:TX:a:t=problem:mixed beam	!	!	!	!	!	!	!
8B\	.	4E\	-da	.	4e\	-da}	.	4g#\	-rem	.	4b\	-rem	.	16e/LL	.	4e\ 4b 4gg#X	.	4ee\	.	4ee\	.
.	.	.	.	.	.	.	.	.	.	.	.	.	.	16ee\	.	.	.	.	.	.	.
8G#\	.	.	.	.	.	.	.	.	.	.	.	.	.	16e/	.	.	.	.	.	.	.
.	.	.	.	.	.	.	.	.	.	.	.	.	.	16ee\JJ	.	.	.	.	.	.	.
*	*	*	*	*	*	*	*	*	*	*	*	*	*	*Xrep	*	*	*	*	*	*	*
*	*	*	*	*	*	*	*	*	*	*	*	*	*	*rep	*	*	*	*	*	*	*
!	!	!	!	!	!	!	!	!	!	!	!	!	!	!LO:TX:a:t=problem:mixed beam	!	!	!	!	!	!	!
8d\	.	4r	.	.	4r	.	.	4r	.	.	4r	.	.	16e/LL	.	4r	.	4r	.	4r	.
.	.	.	.	.	.	.	.	.	.	.	.	.	.	16ee\	.	.	.	.	.	.	.
8B\J	.	.	.	.	.	.	.	.	.	.	.	.	.	16e/	.	.	.	.	.	.	.
.	.	.	.	.	.	.	.	.	.	.	.	.	.	16ee\JJ	.	.	.	.	.	.	.
*	*	*	*	*	*	*	*	*	*	*	*	*	*	*Xrep	*	*	*	*	*	*	*
=25	=25	=25	=25	=25	=25	=25	=25	=25	=25	=25	=25	=25	=25	=25	=25	=25	=25	=25	=25	=25	=25
!	!	!	!	!	!	!	!	!	!	!	!	!	!	!LO:TX:a:t=problem:mixed beam	!	!	!	!LO:LB:g=original	!	!LO:LB:g=original	!
8A\L	.	4e\	{lau-	.	4e\	lau-	.	4a\	Lau-	.	4cc#\	lau-	.	16e/LL	.	4e/ 4cc#	.	4a/	.	4ee\	.
.	.	.	.	.	.	.	.	.	.	.	.	.	.	16ee\	.	.	.	.	.	.	.
8E\	.	.	.	.	.	.	.	.	.	.	.	.	.	16e/	.	.	.	.	.	.	.
.	.	.	.	.	.	.	.	.	.	.	.	.	.	16ee\JJ	.	.	.	.	.	.	.
*	*	*	*	*	*	*	*	*	*	*	*	*	*	*rep	*	*	*	*	*	*	*
!	!	!	!	!	!	!	!	!	!	!	!	!	!	!LO:TX:a:t=problem:mixed beam	!	!	!	!	!	!	!
8c#\	.	4E\	-da}	.	4e\	-da	.	4a\	-da	.	4cc#\	-da	.	16e/LL	.	4e\ 4cc# 4aa	.	4a/	.	4ee\	.
.	.	.	.	.	.	.	.	.	.	.	.	.	.	16ee\	.	.	.	.	.	.	.
8A\	.	.	.	.	.	.	.	.	.	.	.	.	.	16e/	.	.	.	.	.	.	.
.	.	.	.	.	.	.	.	.	.	.	.	.	.	16ee\JJ	.	.	.	.	.	.	.
*	*	*	*	*	*	*	*	*	*	*	*	*	*	*Xrep	*	*	*	*	*	*	*
*	*	*	*	*	*	*	*	*	*	*	*	*	*	*rep	*	*	*	*	*	*	*
!	!	!	!	!	!	!	!	!	!	!	!	!	!	!LO:TX:a:t=problem:mixed beam	!	!	!	!	!	!	!
8e\	.	4r	.	.	4r	.	.	4r	.	.	4r	.	.	16e/LL	.	4r	.	4r	.	4r	.
.	.	.	.	.	.	.	.	.	.	.	.	.	.	16ee\	.	.	.	.	.	.	.
8c#\J	.	.	.	.	.	.	.	.	.	.	.	.	.	16e/	.	.	.	.	.	.	.
.	.	.	.	.	.	.	.	.	.	.	.	.	.	16ee\JJ	.	.	.	.	.	.	.
*	*	*	*	*	*	*	*	*	*	*	*	*	*	*Xrep	*	*	*	*	*	*	*
=26	=26	=26	=26	=26	=26	=26	=26	=26	=26	=26	=26	=26	=26	=26	=26	=26	=26	=26	=26	=26	=26
!LO:LB:g=original	!	!	!LO:LB:g=original	!	!	!	!	!	!	!	!LO:LB:g=original	!	!	!LO:LB:g=original	!	!	!	!	!	!	!
!	!	!	!	!	!	!	!	!	!	!	!	!	!	!LO:TX:a:t=problem:mixed beam	!	!	!	!	!	!	!
8G#X\L	.	4e\	lau-	.	4e\	{lau-	.	4b\	lau-	.	4dd\	lau-	.	16e/LL	.	4e/ 4dd	.	4ee\	.	4ee\	.
.	.	.	.	.	.	.	.	.	.	.	.	.	.	16ee\	.	.	.	.	.	.	.
8E\	.	.	.	.	.	.	.	.	.	.	.	.	.	16e/	.	.	.	.	.	.	.
.	.	.	.	.	.	.	.	.	.	.	.	.	.	16ee\JJ	.	.	.	.	.	.	.
*	*	*	*	*	*	*	*	*	*	*	*	*	*	*rep	*	*	*	*	*	*	*
!	!	!	!	!	!	!	!	!	!	!	!	!	!	!LO:TX:a:t=problem:mixed beam	!	!	!	!	!	!	!
8B\	.	4E\	-da	.	4e\	-da}	.	4b\	-da	.	4dd\	-da	.	16e/LL	.	4e\ 4dd 4bb	.	4ee\	.	4ee\	.
.	.	.	.	.	.	.	.	.	.	.	.	.	.	16ee\	.	.	.	.	.	.	.
8G#\	.	.	.	.	.	.	.	.	.	.	.	.	.	16e/	.	.	.	.	.	.	.
.	.	.	.	.	.	.	.	.	.	.	.	.	.	16ee\JJ	.	.	.	.	.	.	.
*	*	*	*	*	*	*	*	*	*	*	*	*	*	*Xrep	*	*	*	*	*	*	*
*	*	*	*	*	*	*	*	*	*	*	*	*	*	*rep	*	*	*	*	*	*	*
!	!	!	!	!	!	!	!	!	!	!	!	!	!	!LO:TX:a:t=problem:mixed beam	!	!	!	!	!	!	!
8d\	.	4r	.	.	4r	.	.	4r	.	.	4r	.	.	16e/LL	.	4r	.	4r	.	4r	.
.	.	.	.	.	.	.	.	.	.	.	.	.	.	16ee\	.	.	.	.	.	.	.
8B\J	.	.	.	.	.	.	.	.	.	.	.	.	.	16e/	.	.	.	.	.	.	.
.	.	.	.	.	.	.	.	.	.	.	.	.	.	16ee\JJ	.	.	.	.	.	.	.
*	*	*	*	*	*	*	*	*	*	*	*	*	*	*Xrep	*	*	*	*	*	*	*
=27	=27	=27	=27	=27	=27	=27	=27	=27	=27	=27	=27	=27	=27	=27	=27	=27	=27	=27	=27	=27	=27
!	!	!LO:N:vis=00	!	!	!LO:LB:g=original	!	!	!LO:LB:g=original	!	!	!	!	!	!	!	!	!LO:DY:t=pia:	!LO:N:vis=00	!	!LO:N:vis=00	!
!	!	!	!	!	!LO:N:vis=0	!	!	!LO:N:vis=0	!	!	!	!	!	!	!	!	!	!	!	!	!
4A\	.	0.r	.	.	1.r	.	.	1.r	.	.	2.r	.	.	4cc#\	.	(2.aa\	p	0.r	.	0.r	.
4r	.	.	.	.	.	.	.	.	.	.	.	.	.	4r	.	.	.	.	.	.	.
4r	.	.	.	.	.	.	.	.	.	.	.	.	.	4r	.	.	.	.	.	.	.
=28	=28	=28	=28	=28	=28	=28	=28	=28	=28	=28	=28	=28	=28	=28	=28	=28	=28	=28	=28	=28	=28
4r	.	.	.	.	.	.	.	.	.	.	4r	.	.	4r	.	2.ff#\	.	.	.	.	.
!	!	!	!	!	!	!	!	!	!	!	!	!	!LO:DY:t=pia	!	!	!	!	!	!	!	!
!	!LO:DY:t=pia	!	!	!	!	!	!	!	!	!	!	!	!LO:DY:b	!	!	!	!	!	!	!	!
4d\	p	.	.	.	.	.	.	.	.	.	2ff#\	in	p	4a'/	p	.	.	.	.	.	.
4d\	.	.	.	.	.	.	.	.	.	.	.	.	.	4a'/	.	.	.	.	.	.	.
=29	=29	=29	=29	=29	=29	=29	=29	=29	=29	=29	=29	=29	=29	=29	=29	=29	=29	=29	=29	=29	=29
4r	.	.	.	.	4r	.	.	2.r	.	.	2.ee\	Hy-	.	4r	.	2.ee\	.	.	.	.	.
!	!	!	!	!	!	!	!LO:DY:b	!	!	!	!	!	!	!	!	!	!	!	!	!	!
!	!	!	!	!	!	!	!LO:DY:t=pia	!	!	!	!	!	!	!	!	!	!	!	!	!	!
4c#'\	.	.	.	.	2c#\	in	p	.	.	.	.	.	.	4a'/	.	.	.	.	.	.	.
4c#'\	.	.	.	.	.	.	.	.	.	.	.	.	.	4a'/	.	.	.	.	.	.	.
=30	=30	=30	=30	=30	=30	=30	=30	=30	=30	=30	=30	=30	=30	=30	=30	=30	=30	=30	=30	=30	=30
4r	.	.	.	.	2.B\	Hy-	.	4r	.	.	2.dd\	-mnis	.	4r	.	2.g#X/)	.	.	.	.	.
!	!	!	!	!	!	!	!	!	!	!LO:DY:b	!	!	!	!	!	!	!	!	!	!	!
!	!	!	!	!	!	!	!	!	!	!LO:DY:t=pia	!	!	!	!	!	!	!	!	!	!	!
4B'\	.	.	.	.	.	.	.	2g#X\	in	p	.	.	.	4e'/	.	.	.	.	.	.	.
4B'\	.	.	.	.	.	.	.	.	.	.	.	.	.	4e'/	.	.	.	.	.	.	.
=31	=31	=31	=31	=31	=31	=31	=31	=31	=31	=31	=31	=31	=31	=31	=31	=31	=31	=31	=31	=31	=31
!	!	!LO:N:vis=00	!	!	!	!	!	!	!	!	!	!	!	!	!	!LO:LB:g=original	!	!	!	!	!
4r	.	0.r	.	.	2.A\	-mnis	.	2.a\	Hy-	.	2.cc#\	et	.	4r	.	(2.a/	.	2.r	.	2.r	.
4A'\	.	.	.	.	.	.	.	.	.	.	.	.	.	4c#'/	.	.	.	.	.	.	.
4A'\	.	.	.	.	.	.	.	.	.	.	.	.	.	4c#'/	.	.	.	.	.	.	.
=32	=32	=32	=32	=32	=32	=32	=32	=32	=32	=32	=32	=32	=32	=32	=32	=32	=32	=32	=32	=32	=32
4r	.	.	.	.	2.A\	et	.	2.e\	-mnis	.	2.cc#\	can-	.	4r	.	2.e/	.	2.a/	p	2.a/	p
4AA'>/	.	.	.	.	.	.	.	.	.	.	.	.	.	4c#'/	.	.	.	.	.	.	.
4AA'>/	.	.	.	.	.	.	.	.	.	.	.	.	.	4c#'/	.	.	.	.	.	.	.
=33	=33	=33	=33	=33	=33	=33	=33	=33	=33	=33	=33	=33	=33	=33	=33	=33	=33	=33	=33	=33	=33
4r	.	.	.	.	2.A\	can-	.	2.f#\	et	.	2.dd\	.	.	4r	.	2.f#/	.	2.a/	.	2.a/	.
4AA'>/	.	.	.	.	.	.	.	.	.	.	.	.	.	4d'/	.	.	.	.	.	.	.
4AA'>/	.	.	.	.	.	.	.	.	.	.	.	.	.	4d'/	.	.	.	.	.	.	.
=34	=34	=34	=34	=34	=34	=34	=34	=34	=34	=34	=34	=34	=34	=34	=34	=34	=34	=34	=34	=34	=34
4r	.	.	.	.	2A\	.	.	2gn\	can-	.	2ee\	.	.	4r	.	2.gn/)	.	2.a/	.	2.a/	.
4AA'>/	.	.	.	.	.	.	.	.	.	.	.	.	.	4e'/	.	.	.	.	.	.	.
4AA'>/	.	.	.	.	4A\	-ti-	.	4g\	-ti-	.	4ee\	-ti-	.	4e'/	.	.	.	.	.	.	.
=35	=35	=35	=35	=35	=35	=35	=35	=35	=35	=35	=35	=35	=35	=35	=35	=35	=35	=35	=35	=35	=35
!LO:LB:g=original	!	!	!	!	!	!	!	!	!	!	!	!	!	!LO:LB:g=original	!	!	!	!	!	!	!
!	!	!	!	!	!	!	!	!	!	!	!	!	!	!LO:TX:a:t=problem:mixed beam	!	!LO:TX:a:t=problem:mixed beam	!	!LO:TX:a:t=problem:mixed beam	!	!LO:TX:a:t=problem:mixed beam	!
8D'\L	f	2.r	.	.	4A\	-cis	.	4f#\	-cis	.	4dd\	-cis	.	8dd'\L	f	8dd'\L	f	8dd'\L	f	8dd'\L	f
8D'\	.	.	.	.	.	.	.	.	.	.	.	.	.	8d'/	.	8d'/	.	8d'/	.	8d'/	.
8F#'\	.	.	.	.	4r	.	.	4r	.	.	4r	.	.	8f#'/	.	8f#'/	.	8f#'/	.	8f#'/	.
8D'\	.	.	.	.	.	.	.	.	.	.	.	.	.	8d'/	.	8d'/	.	8d'/	.	8d'/	.
8A'\	.	.	.	.	4r	.	.	4r	.	.	4r	.	.	8a'/	.	8a'/	.	8a'/	.	8a'/	.
8F#'\J	.	.	.	.	.	.	.	.	.	.	.	.	.	8f#'/J	.	8f#'/J	.	8f#'/J	.	8f#'/J	.
=36	=36	=36	=36	=36	=36	=36	=36	=36	=36	=36	=36	=36	=36	=36	=36	=36	=36	=36	=36	=36	=36
*	*	*	*	*	*	*	*	*	*	*	*	*	*	*tremolo	*	*	*	*	*	*	*
!	!	!	!	!	!	!	!	!	!	!	!LO:LB:g=original	!	!	!	!	!	!	!	!	!	!
4D\	.	4r	.	.	4r	.	.	2.r	.	.	2.r	.	.	16A/LL 16f#	.	8dd'\L	.	4dd\	.	4dd\	.
.	.	.	.	.	.	.	.	.	.	.	.	.	.	16A/ 16f#	.	.	.	.	.	.	.
.	.	.	.	.	.	.	.	.	.	.	.	.	.	16A/ 16f#	.	8a'\	.	.	.	.	.
.	.	.	.	.	.	.	.	.	.	.	.	.	.	16A/ 16f#	.	.	.	.	.	.	.
!	!	!	!	!	!	!	!LO:DY:b	!	!	!	!	!	!	!	!	!	!	!	!	!	!
!	!	!	!	!LO:DY:a	!	!	!LO:DY:t=forte	!	!	!	!	!	!	!	!	!	!	!	!	!	!
4D\	.	4d\	quan-	f	4d\	quan-	f	.	.	.	.	.	.	16A/ 16f#	.	8ff#'\	.	4r	.	4r	.
.	.	.	.	.	.	.	.	.	.	.	.	.	.	16A/ 16f#	.	.	.	.	.	.	.
.	.	.	.	.	.	.	.	.	.	.	.	.	.	16A/ 16f#	.	8dd'\	.	.	.	.	.
.	.	.	.	.	.	.	.	.	.	.	.	.	.	16A/ 16f#	.	.	.	.	.	.	.
4D\	.	4d\	-tum	.	4d\	-tum	.	.	.	.	.	.	.	16A/ 16f#	.	8aa'\	.	4r	.	4r	.
.	.	.	.	.	.	.	.	.	.	.	.	.	.	16A/ 16f#	.	.	.	.	.	.	.
.	.	.	.	.	.	.	.	.	.	.	.	.	.	16A/ 16f#	.	8ff#'\J	.	.	.	.	.
.	.	.	.	.	.	.	.	.	.	.	.	.	.	16A/JJ 16f#	.	.	.	.	.	.	.
=37	=37	=37	=37	=37	=37	=37	=37	=37	=37	=37	=37	=37	=37	=37	=37	=37	=37	=37	=37	=37	=37
!LO:TX:a:t=problem:mixed beam	!	!	!	!	!LO:LB:g=original	!	!	!	!	!	!	!	!	!	!	!LO:TX:a:t=problem:mixed beam	!	!	!	!	!
8d\L	.	2d\	po-	.	2d\	po-	.	4r	.	.	4r	.	.	16B/LL 16g	.	8dd'\L	.	2.d/	.	2.dd\	.
.	.	.	.	.	.	.	.	.	.	.	.	.	.	16B/ 16g	.	.	.	.	.	.	.
8D/	.	.	.	.	.	.	.	.	.	.	.	.	.	16B/ 16g	.	8d'/	.	.	.	.	.
.	.	.	.	.	.	.	.	.	.	.	.	.	.	16B/ 16g	.	.	.	.	.	.	.
8G/	.	.	.	.	.	.	.	4g\	quan-	.	4b\	quan-	.	16B/ 16g	.	8g'/	.	.	.	.	.
.	.	.	.	.	.	.	.	.	.	.	.	.	.	16B/ 16g	.	.	.	.	.	.	.
8D/	.	.	.	.	.	.	.	.	.	.	.	.	.	16B/ 16g	.	8d'/	.	.	.	.	.
.	.	.	.	.	.	.	.	.	.	.	.	.	.	16B/ 16g	.	.	.	.	.	.	.
8B/	.	4d\	-tes	.	4d\	-tes	.	4g\	-tum	.	4b\	-tum	.	16B/ 16g	.	8b'/	.	.	.	.	.
.	.	.	.	.	.	.	.	.	.	.	.	.	.	16B/ 16g	.	.	.	.	.	.	.
8G/J	.	.	.	.	.	.	.	.	.	.	.	.	.	16B/ 16g	.	8g'/J	.	.	.	.	.
.	.	.	.	.	.	.	.	.	.	.	.	.	.	16B/JJ 16g	.	.	.	.	.	.	.
=38	=38	=38	=38	=38	=38	=38	=38	=38	=38	=38	=38	=38	=38	=38	=38	=38	=38	=38	=38	=38	=38
!	!	!	!	!	!	!	!	!LO:LB:g=original	!	!	!	!	!	!	!	!	!	!	!	!	!
4D\	.	2B\	tan-	.	2d\	tan-	.	2g\	po-	.	2b\	po-	.	16B/LL 16g	.	8dd'\L	.	2.d/	.	2.dd\	.
.	.	.	.	.	.	.	.	.	.	.	.	.	.	16B/ 16g	.	.	.	.	.	.	.
.	.	.	.	.	.	.	.	.	.	.	.	.	.	16B/ 16g	.	8b'\	.	.	.	.	.
.	.	.	.	.	.	.	.	.	.	.	.	.	.	16B/ 16g	.	.	.	.	.	.	.
4D\	.	.	.	.	.	.	.	.	.	.	.	.	.	16B/ 16g	.	8gg'\	.	.	.	.	.
.	.	.	.	.	.	.	.	.	.	.	.	.	.	16B/ 16g	.	.	.	.	.	.	.
.	.	.	.	.	.	.	.	.	.	.	.	.	.	16B/ 16g	.	8dd'\	.	.	.	.	.
.	.	.	.	.	.	.	.	.	.	.	.	.	.	16B/ 16g	.	.	.	.	.	.	.
4D\	.	4B\	-tum	.	4d\	-tum	.	4g\	-tes	.	4b\	-tes	.	16B/ 16g	.	8bb'\	.	.	.	.	.
.	.	.	.	.	.	.	.	.	.	.	.	.	.	16B/ 16g	.	.	.	.	.	.	.
.	.	.	.	.	.	.	.	.	.	.	.	.	.	16B/ 16g	.	8gg'\J	.	.	.	.	.
.	.	.	.	.	.	.	.	.	.	.	.	.	.	16B/JJ 16g	.	.	.	.	.	.	.
=39	=39	=39	=39	=39	=39	=39	=39	=39	=39	=39	=39	=39	=39	=39	=39	=39	=39	=39	=39	=39	=39
!LO:TX:a:t=problem:mixed beam	!	!	!	!	!	!	!	!	!	!	!	!	!	!	!	!LO:TX:a:t=problem:mixed beam	!	!	!	!	!
8d\L	.	2.F#\	au-	.	2.d\	au-	.	2a\	tan-	.	2ccn\	tan-	.	16A/LL 16f#	.	8dd'\L	.	2.d/	.	2.dd\	.
.	.	.	.	.	.	.	.	.	.	.	.	.	.	16A/ 16f#	.	.	.	.	.	.	.
8D/	.	.	.	.	.	.	.	.	.	.	.	.	.	16A/ 16f#	.	8d'/	.	.	.	.	.
.	.	.	.	.	.	.	.	.	.	.	.	.	.	16A/ 16f#	.	.	.	.	.	.	.
8F#/	.	.	.	.	.	.	.	.	.	.	.	.	.	16A/ 16f#	.	8f#'/	.	.	.	.	.
.	.	.	.	.	.	.	.	.	.	.	.	.	.	16A/ 16f#	.	.	.	.	.	.	.
8D/	.	.	.	.	.	.	.	.	.	.	.	.	.	16A/ 16f#	.	8d'/	.	.	.	.	.
.	.	.	.	.	.	.	.	.	.	.	.	.	.	16A/ 16f#	.	.	.	.	.	.	.
8A/	.	.	.	.	.	.	.	4a\	-tum	.	4cc\	-tum	.	16A/ 16f#	.	8a'/	.	.	.	.	.
.	.	.	.	.	.	.	.	.	.	.	.	.	.	16A/ 16f#	.	.	.	.	.	.	.
8F#/J	.	.	.	.	.	.	.	.	.	.	.	.	.	16A/ 16f#	.	8f#'/J	.	.	.	.	.
.	.	.	.	.	.	.	.	.	.	.	.	.	.	16A/JJ 16f#	.	.	.	.	.	.	.
=40	=40	=40	=40	=40	=40	=40	=40	=40	=40	=40	=40	=40	=40	=40	=40	=40	=40	=40	=40	=40	=40
!	!	!	!	!	!	!	!	!	!	!	!	!	!	!	!	!LO:LB:g=original	!	!	!	!	!
4D\	.	2.F#\	.	.	2.d\	.	.	2.a\	au-	.	2.cc#\	au-	.	16A/LL 16f#	.	8ccn'\L	.	2.d/	.	2.dd\	.
.	.	.	.	.	.	.	.	.	.	.	.	.	.	16A/ 16f#	.	.	.	.	.	.	.
.	.	.	.	.	.	.	.	.	.	.	.	.	.	16A/ 16f#	.	8a'\	.	.	.	.	.
.	.	.	.	.	.	.	.	.	.	.	.	.	.	16A/ 16f#	.	.	.	.	.	.	.
4D\	.	.	.	.	.	.	.	.	.	.	.	.	.	16A/ 16f#	.	8ff#'\	.	.	.	.	.
.	.	.	.	.	.	.	.	.	.	.	.	.	.	16A/ 16f#	.	.	.	.	.	.	.
.	.	.	.	.	.	.	.	.	.	.	.	.	.	16A/ 16f#	.	8cc'\	.	.	.	.	.
.	.	.	.	.	.	.	.	.	.	.	.	.	.	16A/ 16f#	.	.	.	.	.	.	.
4D\	.	.	.	.	.	.	.	.	.	.	.	.	.	16A/ 16f#	.	8aa'\	.	.	.	.	.
.	.	.	.	.	.	.	.	.	.	.	.	.	.	16A/ 16f#	.	.	.	.	.	.	.
.	.	.	.	.	.	.	.	.	.	.	.	.	.	16A/ 16f#	.	8cc'\J	.	.	.	.	.
.	.	.	.	.	.	.	.	.	.	.	.	.	.	16A/JJ 16f#	.	.	.	.	.	.	.
*	*	*	*	*	*	*	*	*	*	*	*	*	*	*Xtremolo	*	*	*	*	*	*	*
=41	=41	=41	=41	=41	=41	=41	=41	=41	=41	=41	=41	=41	=41	=41	=41	=41	=41	=41	=41	=41	=41
!	!LO:DY:t=pia	!	!	!	!	!	!	!	!	!	!	!	!	!	!	!	!	!LO:LB:g=original	!	!LO:LB:g=original	!
4G\	p	4G\	-de	.	4d\	-de	.	4g\	-de	.	4b\	-de	.	4g/	p	4b\	.	4d/	.	4dd\	.
4GG/	.	4r	.	.	4r	.	.	4r	.	.	4r	.	.	4G/	.	8r	.	4r	.	4r	.
.	.	.	.	.	.	.	.	.	.	.	.	.	.	.	.	8bb\L	p	.	.	.	.
4r	.	4r	.	.	4r	.	.	4r	.	.	4r	.	.	4r	.	(8ff#\	.	4r	.	4r	.
.	.	.	.	.	.	.	.	.	.	.	.	.	.	.	.	8gg\J)	.	.	.	.	.
=42	=42	=42	=42	=42	=42	=42	=42	=42	=42	=42	=42	=42	=42	=42	=42	=42	=42	=42	=42	=42	=42
!LO:LB:g=original	!	!LO:LB:g=original	!	!	!LO:N:vis=00	!	!	!LO:N:vis=00	!	!	!LO:N:vis=00	!	!	!	!	!	!	!LO:N:vis=00	!	!LO:N:vis=00	!
!	!	!LO:N:vis=00	!	!	!	!	!	!	!	!	!	!	!	!	!	!	!	!	!	!	!
2.r	.	0.r	.	.	0.r	.	.	0.r	.	.	0.r	.	.	4g/	.	(8dd#X\L	.	0.r	.	0.r	.
.	.	.	.	.	.	.	.	.	.	.	.	.	.	.	.	8ee\)	.	.	.	.	.
.	.	.	.	.	.	.	.	.	.	.	.	.	.	4g/	.	(8b\	.	.	.	.	.
.	.	.	.	.	.	.	.	.	.	.	.	.	.	.	.	8cc#\)	.	.	.	.	.
.	.	.	.	.	.	.	.	.	.	.	.	.	.	4g#X/	.	(8ddn\	.	.	.	.	.
.	.	.	.	.	.	.	.	.	.	.	.	.	.	.	.	8ee\J)	.	.	.	.	.
=43	=43	=43	=43	=43	=43	=43	=43	=43	=43	=43	=43	=43	=43	=43	=43	=43	=43	=43	=43	=43	=43
4A\	.	.	.	.	.	.	.	.	.	.	.	.	.	4a/	.	4cc#\	.	.	.	.	.
4AA/	.	.	.	.	.	.	.	.	.	.	.	.	.	4A/	.	8r	.	.	.	.	.
.	.	.	.	.	.	.	.	.	.	.	.	.	.	.	.	8aa\L	.	.	.	.	.
4r	.	.	.	.	.	.	.	.	.	.	.	.	.	4r	.	(8ee\	.	.	.	.	.
.	.	.	.	.	.	.	.	.	.	.	.	.	.	.	.	8ff#\J)	.	.	.	.	.
=44	=44	=44	=44	=44	=44	=44	=44	=44	=44	=44	=44	=44	=44	=44	=44	=44	=44	=44	=44	=44	=44
!	!	!	!	!	!	!	!	!	!	!	!	!	!	!LO:LB:g=original	!	!	!	!	!	!	!
2.r	.	.	.	.	.	.	.	.	.	.	.	.	.	4f#/	.	(8cc#\L	.	.	.	.	.
.	.	.	.	.	.	.	.	.	.	.	.	.	.	.	.	8dd\J)	.	.	.	.	.
.	.	.	.	.	.	.	.	.	.	.	.	.	.	4f#/	.	(8a\L	.	.	.	.	.
.	.	.	.	.	.	.	.	.	.	.	.	.	.	.	.	8b\)	.	.	.	.	.
.	.	.	.	.	.	.	.	.	.	.	.	.	.	4f#/	.	(8ccn\	.	.	.	.	.
.	.	.	.	.	.	.	.	.	.	.	.	.	.	.	.	8dd\J)	.	.	.	.	.
=45	=45	=45	=45	=45	=45	=45	=45	=45	=45	=45	=45	=45	=45	=45	=45	=45	=45	=45	=45	=45	=45
4G\	.	.	.	.	.	.	.	.	.	.	.	.	.	4g/	.	4b\	.	.	.	.	.
4GG/	.	.	.	.	.	.	.	.	.	.	.	.	.	4G/	.	8r	.	.	.	.	.
!	!	!	!	!	!	!	!	!	!	!	!	!	!	!	!	!	!LO:DY:t=pia.	!	!	!	!
.	.	.	.	.	.	.	.	.	.	.	.	.	.	.	.	8gg\L	p	.	.	.	.
4r	.	.	.	.	.	.	.	.	.	.	.	.	.	4r	.	(8dd#X\	.	.	.	.	.
.	.	.	.	.	.	.	.	.	.	.	.	.	.	.	.	8ee\J)	.	.	.	.	.
=46	=46	=46	=46	=46	=46	=46	=46	=46	=46	=46	=46	=46	=46	=46	=46	=46	=46	=46	=46	=46	=46
!	!	!LO:N:vis=00	!	!	!LO:N:vis=00	!	!	!LO:N:vis=0	!	!	!LO:N:vis=0	!	!	!	!	!LO:LB:g=original	!	!LO:N:vis=00	!	!LO:N:vis=00	!
4G\	.	0.r	.	.	0.r	.	.	1.r	.	.	1.r	.	.	4g/	.	4b\	.	0.r	.	0.r	.
4GG/	.	.	.	.	.	.	.	.	.	.	.	.	.	4G/	.	8r	.	.	.	.	.
.	.	.	.	.	.	.	.	.	.	.	.	.	.	.	.	8gg\L	.	.	.	.	.
4r	.	.	.	.	.	.	.	.	.	.	.	.	.	4r	.	8dd#X\	.	.	.	.	.
.	.	.	.	.	.	.	.	.	.	.	.	.	.	.	.	8ee\J	.	.	.	.	.
=47	=47	=47	=47	=47	=47	=47	=47	=47	=47	=47	=47	=47	=47	=47	=47	=47	=47	=47	=47	=47	=47
4G\	.	.	.	.	.	.	.	.	.	.	.	.	.	4g/	.	4b\	.	.	.	.	.
4GG/	.	.	.	.	.	.	.	.	.	.	.	.	.	4G/	.	8r	.	.	.	.	.
.	.	.	.	.	.	.	.	.	.	.	.	.	.	.	.	8gg\L	.	.	.	.	.
4r	.	.	.	.	.	.	.	.	.	.	.	.	.	4r	.	(8dd#X\	.	.	.	.	.
.	.	.	.	.	.	.	.	.	.	.	.	.	.	.	.	8ee\J)	.	.	.	.	.
=48	=48	=48	=48	=48	=48	=48	=48	=48	=48	=48	=48	=48	=48	=48	=48	=48	=48	=48	=48	=48	=48
4G\	.	.	.	.	.	.	.	2.r	.	.	2.r	.	.	4g/	.	(8dd#X\L	.	.	.	.	.
.	.	.	.	.	.	.	.	.	.	.	.	.	.	.	.	8ee\)	.	.	.	.	.
4GG/	.	.	.	.	.	.	.	.	.	.	.	.	.	4G/	.	(8b\	.	.	.	.	.
.	.	.	.	.	.	.	.	.	.	.	.	.	.	.	.	8cc#\)	.	.	.	.	.
4G#X\	.	.	.	.	.	.	.	.	.	.	.	.	.	4g#X/	.	(8ddn\	.	.	.	.	.
.	.	.	.	.	.	.	.	.	.	.	.	.	.	.	.	8ee\J)	.	.	.	.	.
=49	=49	=49	=49	=49	=49	=49	=49	=49	=49	=49	=49	=49	=49	=49	=49	=49	=49	=49	=49	=49	=49
*tremolo	*	*	*	*	*	*	*	*	*	*	*	*	*	*2\right	*	*	*	*	*	*	*
*2\right	*	*	*	*	*	*	*	*	*	*	*	*	*	*	*	*	*	*	*	*	*
!	!	!	!	!	!	!	!	!	!	!	!LO:LB:g=original	!	!	!LO:TX:a:t=Dolce	!	!LO:TX:a:t=Dolce	!	!	!	!	!
8A\L	.	.	.	.	.	.	.	2a\	qui-	.	2cc#X\	qui-	.	2a\	.	2cc#\	.	.	.	.	.
8A\	.	.	.	.	.	.	.	.	.	.	.	.	.	.	.	.	.	.	.	.	.
8A\	.	.	.	.	.	.	.	.	.	.	.	.	.	.	.	.	.	.	.	.	.
8A\	.	.	.	.	.	.	.	.	.	.	.	.	.	.	.	.	.	.	.	.	.
.	.	.	.	.	.	.	.	.	.	.	.	.	.	8qcc#/	.	8qqee/	.	.	.	.	.
8A\	.	.	.	.	.	.	.	4b\	-a	.	4dd\	-a	.	8b/L	.	8dd\L	.	.	.	.	.
8A\J	.	.	.	.	.	.	.	.	.	.	.	.	.	16a/L	.	16cc#\L	.	.	.	.	.
.	.	.	.	.	.	.	.	.	.	.	.	.	.	16b/JJ	.	16dd\JJ	.	.	.	.	.
=50	=50	=50	=50	=50	=50	=50	=50	=50	=50	=50	=50	=50	=50	=50	=50	=50	=50	=50	=50	=50	=50
!	!	!	!	!	!	!	!	!	!	!	!	!	!	!	!	!	!	!LO:N:vis=00	!	!LO:N:vis=00	!
8A\L	.	2.r	.	.	2.r	.	.	4cc#\	ma-	.	(4ee\	ma-	.	(4cc#\	.	(4ee\	.	0.r	.	0.r	.
8A\	.	.	.	.	.	.	.	.	.	.	.	.	.	.	.	.	.	.	.	.	.
8A\	.	.	.	.	.	.	.	4dd\	.	.	4ff#\)	.	.	4dd\)	.	4ff#\)	.	.	.	.	.
8A\	.	.	.	.	.	.	.	.	.	.	.	.	.	.	.	.	.	.	.	.	.
8A\	.	.	.	.	.	.	.	4b\	.	.	4dd\	.	.	4b'\	.	4dd'\	.	.	.	.	.
8A\J	.	.	.	.	.	.	.	.	.	.	.	.	.	.	.	.	.	.	.	.	.
=51	=51	=51	=51	=51	=51	=51	=51	=51	=51	=51	=51	=51	=51	=51	=51	=51	=51	=51	=51	=51	=51
8A\L	.	2A\	o-	.	2c#\	o-	.	4a\	-jor	.	4cc#\	-jor	.	2a\	.	2cc#\	.	.	.	.	.
8A\	.	.	.	.	.	.	.	.	.	.	.	.	.	.	.	.	.	.	.	.	.
8A\	.	.	.	.	.	.	.	4r	.	.	4r	.	.	.	.	.	.	.	.	.	.
8A\	.	.	.	.	.	.	.	.	.	.	.	.	.	.	.	.	.	.	.	.	.
.	.	.	.	.	.	.	.	.	.	.	.	.	.	8qcc#/	.	8qqee/	.	.	.	.	.
8A\	.	4B\	-mni	.	4d\	-mni	.	4r	.	.	4r	.	.	(>8b\L	.	(8dd\L	.	.	.	.	.
8A\J	.	.	.	.	.	.	.	.	.	.	.	.	.	16a\L	.	16cc#\L	.	.	.	.	.
.	.	.	.	.	.	.	.	.	.	.	.	.	.	16b\JJ)	.	16dd\JJ)	.	.	.	.	.
=52	=52	=52	=52	=52	=52	=52	=52	=52	=52	=52	=52	=52	=52	=52	=52	=52	=52	=52	=52	=52	=52
!	!	!	!	!	!LO:LB:g=original	!	!	!LO:LB:g=original	!	!	!LO:N:vis=0	!	!	!LO:LB:g=original	!	!	!	!	!	!	!
!	!	!	!	!	!	!	!	!LO:N:vis=0	!	!	!	!	!	!	!	!	!	!	!	!	!
8A\L	.	(4c#\	lau-	.	(4e\	lau-	.	1.r	.	.	1.r	.	.	(4cc#\	.	(4ee\	.	.	.	.	.
8A\	.	.	.	.	.	.	.	.	.	.	.	.	.	.	.	.	.	.	.	.	.
8A\	.	4d\)	.	.	4f#\)	.	.	.	.	.	.	.	.	4dd\)	.	4ff#\)	.	.	.	.	.
8A\	.	.	.	.	.	.	.	.	.	.	.	.	.	.	.	.	.	.	.	.	.
8A\	.	4B\	.	.	4d\	.	.	.	.	.	.	.	.	4b'\	.	4dd'\	.	.	.	.	.
8A\J	.	.	.	.	.	.	.	.	.	.	.	.	.	.	.	.	.	.	.	.	.
=53	=53	=53	=53	=53	=53	=53	=53	=53	=53	=53	=53	=53	=53	=53	=53	=53	=53	=53	=53	=53	=53
!	!	!	!	!	!	!	!	!	!	!	!	!	!	!	!	!LO:LB:g=original	!	!	!	!	!
8A\L	.	4A\	-de	.	4c#\	-de	.	.	.	.	.	.	.	(4cc#\	.	(4ee\	.	.	.	.	.
8A\	.	.	.	.	.	.	.	.	.	.	.	.	.	.	.	.	.	.	.	.	.
8A\	.	4r	.	.	4r	.	.	.	.	.	.	.	.	4dd\)	.	4ff#\)	.	.	.	.	.
8A\	.	.	.	.	.	.	.	.	.	.	.	.	.	.	.	.	.	.	.	.	.
8A\	.	4r	.	.	4r	.	.	.	.	.	.	.	.	4b'\	.	4dd'\	.	.	.	.	.
8A\J	.	.	.	.	.	.	.	.	.	.	.	.	.	.	.	.	.	.	.	.	.
=54	=54	=54	=54	=54	=54	=54	=54	=54	=54	=54	=54	=54	=54	=54	=54	=54	=54	=54	=54	=54	=54
!LO:LB:g=original	!	!	!	!	!	!	!	!	!	!	!	!	!	!	!	!	!	!	!	!	!
8A\L	.	2.r	.	.	2.r	.	.	2.r	.	.	2.r	.	.	(4cc#\	.	(4ee\	.	2.a/	p	2.a/	p
8A\	.	.	.	.	.	.	.	.	.	.	.	.	.	.	.	.	.	.	.	.	.
8A\	.	.	.	.	.	.	.	.	.	.	.	.	.	4dd\)	.	4ff#\)	.	.	.	.	.
8A\	.	.	.	.	.	.	.	.	.	.	.	.	.	.	.	.	.	.	.	.	.
8A\	.	.	.	.	.	.	.	.	.	.	.	.	.	4b'\	.	4dd'\	.	.	.	.	.
8A\J	.	.	.	.	.	.	.	.	.	.	.	.	.	.	.	.	.	.	.	.	.
=55	=55	=55	=55	=55	=55	=55	=55	=55	=55	=55	=55	=55	=55	=55	=55	=55	=55	=55	=55	=55	=55
!	!	!	!	!	!	!	!	!	!	!	!	!	!	!	!	!	!LO:DY:t=forte	!	!	!	!
8A\L	.	4r	.	.	4r	.	.	4r	.	.	4r	.	.	16a\LL	f	4a\ 4ee	f	4a/	f	4ee\	f
.	.	.	.	.	.	.	.	.	.	.	.	.	.	16aa\	.	.	.	.	.	.	.
8E\	.	.	.	.	.	.	.	.	.	.	.	.	.	16a\	.	.	.	.	.	.	.
.	.	.	.	.	.	.	.	.	.	.	.	.	.	16aa\JJ	.	.	.	.	.	.	.
*	*	*	*	*	*	*	*	*	*	*	*	*	*	*rep	*	*	*	*	*	*	*
8c#\	.	4A\	qui-	.	4c#\	qui-	.	4a\	qui-	.	4ee\	qui-	.	16a\LL	.	4a\ 4ccc#	.	4a/	.	4ee\	.
.	.	.	.	.	.	.	.	.	.	.	.	.	.	16aa\	.	.	.	.	.	.	.
8A\	.	.	.	.	.	.	.	.	.	.	.	.	.	16a\	.	.	.	.	.	.	.
.	.	.	.	.	.	.	.	.	.	.	.	.	.	16aa\JJ	.	.	.	.	.	.	.
*	*	*	*	*	*	*	*	*	*	*	*	*	*	*Xrep	*	*	*	*	*	*	*
*	*	*	*	*	*	*	*	*	*	*	*	*	*	*rep	*	*	*	*	*	*	*
8E\	.	4A\	-a	.	4c#\	-a	.	4a\	-a	.	4ee\	-a	.	16a\LL	.	4r	.	4r	.	4r	.
.	.	.	.	.	.	.	.	.	.	.	.	.	.	16aa\	.	.	.	.	.	.	.
8C#\J	.	.	.	.	.	.	.	.	.	.	.	.	.	16a\	.	.	.	.	.	.	.
.	.	.	.	.	.	.	.	.	.	.	.	.	.	16aa\JJ	.	.	.	.	.	.	.
*	*	*	*	*	*	*	*	*	*	*	*	*	*	*Xrep	*	*	*	*	*	*	*
=56	=56	=56	=56	=56	=56	=56	=56	=56	=56	=56	=56	=56	=56	=56	=56	=56	=56	=56	=56	=56	=56
!LO:TX:a:t=problem:mixed beam	!	!	!	!	!	!	!	!	!	!	!	!	!	!LO:TX:a:t=problem:mixed beam	!	!	!	!	!	!	!
8AA/L	.	2A\	ma-	.	2d\	ma-	.	2a\	ma-	.	2ff#\	ma-	.	16a/LL	.	4a\ 4ff#	.	4dd\	.	4ff#\	.
.	.	.	.	.	.	.	.	.	.	.	.	.	.	16aa\	.	.	.	.	.	.	.
8A\	.	.	.	.	.	.	.	.	.	.	.	.	.	16a/	.	.	.	.	.	.	.
.	.	.	.	.	.	.	.	.	.	.	.	.	.	16aa\JJ	.	.	.	.	.	.	.
*	*	*	*	*	*	*	*	*	*	*	*	*	*	*rep	*	*	*	*	*	*	*
!	!	!	!	!	!	!	!	!	!	!	!	!	!	!LO:TX:a:t=problem:mixed beam	!	!	!	!	!	!	!
8d\	.	.	.	.	.	.	.	.	.	.	.	.	.	16a/LL	.	4a\ 4ddd	.	4dd\	.	4ff#\	.
.	.	.	.	.	.	.	.	.	.	.	.	.	.	16aa\	.	.	.	.	.	.	.
8A\	.	.	.	.	.	.	.	.	.	.	.	.	.	16a/	.	.	.	.	.	.	.
.	.	.	.	.	.	.	.	.	.	.	.	.	.	16aa\JJ	.	.	.	.	.	.	.
*	*	*	*	*	*	*	*	*	*	*	*	*	*	*Xrep	*	*	*	*	*	*	*
*	*	*	*	*	*	*	*	*	*	*	*	*	*	*rep	*	*	*	*	*	*	*
!	!	!	!	!	!	!	!	!	!	!	!	!	!	!LO:TX:a:t=problem:mixed beam	!	!	!	!	!	!	!
8F#\	.	4A\	-jor	.	4d\	-jor	.	4a\	-jor	.	4ff#\	-jior	.	16a/LL	.	4r	.	4r	.	4r	.
.	.	.	.	.	.	.	.	.	.	.	.	.	.	16aa\	.	.	.	.	.	.	.
8D\J	.	.	.	.	.	.	.	.	.	.	.	.	.	16a/	.	.	.	.	.	.	.
.	.	.	.	.	.	.	.	.	.	.	.	.	.	16aa\JJ	.	.	.	.	.	.	.
*	*	*	*	*	*	*	*	*	*	*	*	*	*	*Xrep	*	*	*	*	*	*	*
=57	=57	=57	=57	=57	=57	=57	=57	=57	=57	=57	=57	=57	=57	=57	=57	=57	=57	=57	=57	=57	=57
!LO:TX:a:t=problem:mixed beam	!	!LO:LB:g=original	!	!	!	!	!	!	!	!	!	!	!	!LO:TX:a:t=problem:mixed beam	!	!	!	!	!	!	!
8AA/L	.	2c#\	o-	.	2e\	o-	.	2a\	o-	.	2gg\	o-	.	16a/LL	.	4a\ 4gg	.	4a/	.	4ee\	.
.	.	.	.	.	.	.	.	.	.	.	.	.	.	16aa\	.	.	.	.	.	.	.
8A\	.	.	.	.	.	.	.	.	.	.	.	.	.	16a/	.	.	.	.	.	.	.
.	.	.	.	.	.	.	.	.	.	.	.	.	.	16aa\JJ	.	.	.	.	.	.	.
*	*	*	*	*	*	*	*	*	*	*	*	*	*	*rep	*	*	*	*	*	*	*
!	!	!	!	!	!	!	!	!	!	!	!	!	!	!LO:TX:a:t=problem:mixed beam	!	!	!	!	!	!	!
8c#\	.	.	.	.	.	.	.	.	.	.	.	.	.	16a/LL	.	4a\ 4eee	.	4a/	.	4ee\	.
.	.	.	.	.	.	.	.	.	.	.	.	.	.	16aa\	.	.	.	.	.	.	.
8A\	.	.	.	.	.	.	.	.	.	.	.	.	.	16a/	.	.	.	.	.	.	.
.	.	.	.	.	.	.	.	.	.	.	.	.	.	16aa\JJ	.	.	.	.	.	.	.
*	*	*	*	*	*	*	*	*	*	*	*	*	*	*Xrep	*	*	*	*	*	*	*
*	*	*	*	*	*	*	*	*	*	*	*	*	*	*rep	*	*	*	*	*	*	*
!	!	!	!	!	!	!	!	!	!	!	!	!	!	!LO:TX:a:t=problem:mixed beam	!	!	!	!	!	!	!
8E\	.	4c#\	-mni	.	4e\	-mni	.	4a\	-mni	.	4gg\	-mni	.	16a/LL	.	4r	.	4r	.	4r	.
.	.	.	.	.	.	.	.	.	.	.	.	.	.	16aa\	.	.	.	.	.	.	.
8C#\J	.	.	.	.	.	.	.	.	.	.	.	.	.	16a/	.	.	.	.	.	.	.
.	.	.	.	.	.	.	.	.	.	.	.	.	.	16aa\JJ	.	.	.	.	.	.	.
*	*	*	*	*	*	*	*	*	*	*	*	*	*	*Xrep	*	*	*	*	*	*	*
=58	=58	=58	=58	=58	=58	=58	=58	=58	=58	=58	=58	=58	=58	=58	=58	=58	=58	=58	=58	=58	=58
!LO:TX:a:t=problem:mixed beam	!	!	!	!	!LO:LB:g=original	!	!	!	!	!	!LO:LB:g=original	!	!	!LO:LB:g=original	!	!	!	!	!	!	!
8AA/L	.	4d\	lau-	.	4d\	lau-	.	4a\	lau-	.	4ff#\	lau-	.	16f#/LL	.	8ff#\	.	2f#/	.	2dd\	.
.	.	.	.	.	.	.	.	.	.	.	.	.	.	16a/	.	.	.	.	.	.	.
8A\	.	.	.	.	.	.	.	.	.	.	.	.	.	16f#/	.	4aa\	.	.	.	.	.
.	.	.	.	.	.	.	.	.	.	.	.	.	.	16a/JJ	.	.	.	.	.	.	.
*	*	*	*	*	*	*	*	*	*	*	*	*	*	*rep	*	*	*	*	*	*	*
8d\	.	4D\	-de	.	4d\	-de	.	4a\	-de	.	4ff#\	-de	.	16f#/LL	.	.	.	.	.	.	.
.	.	.	.	.	.	.	.	.	.	.	.	.	.	16a/	.	.	.	.	.	.	.
8A\	.	.	.	.	.	.	.	.	.	.	.	.	.	16f#/	.	4ddd\	.	.	.	.	.
.	.	.	.	.	.	.	.	.	.	.	.	.	.	16a/JJ	.	.	.	.	.	.	.
*	*	*	*	*	*	*	*	*	*	*	*	*	*	*Xrep	*	*	*	*	*	*	*
*	*	*	*	*	*	*	*	*	*	*	*	*	*	*rep	*	*	*	*	*	*	*
8F#\	.	4r	.	.	4r	.	.	4r	.	.	4r	.	.	16f#/LL	.	.	.	4dd\	.	4ff#\	.
.	.	.	.	.	.	.	.	.	.	.	.	.	.	16a/	.	.	.	.	.	.	.
8D\J	.	.	.	.	.	.	.	.	.	.	.	.	.	16f#/	.	8ff#\	.	.	.	.	.
.	.	.	.	.	.	.	.	.	.	.	.	.	.	16a/JJ	.	.	.	.	.	.	.
*	*	*	*	*	*	*	*	*	*	*	*	*	*	*Xrep	*	*	*	*	*	*	*
=59	=59	=59	=59	=59	=59	=59	=59	=59	=59	=59	=59	=59	=59	=59	=59	=59	=59	=59	=59	=59	=59
!LO:TX:a:t=problem:mixed beam	!	!	!	!	!	!	!	!	!	!	!	!	!	!	!	!	!	!	!	!	!
8A\L	.	4r	.	.	4r	.	.	4r	.	.	4r	.	.	16g/LL	.	4ff#\	.	4dd\	.	4ff#\	.
.	.	.	.	.	.	.	.	.	.	.	.	.	.	16a/	.	.	.	.	.	.	.
8AA/	.	.	.	.	.	.	.	.	.	.	.	.	.	16g/	.	.	.	.	.	.	.
.	.	.	.	.	.	.	.	.	.	.	.	.	.	16a/JJ	.	.	.	.	.	.	.
*	*	*	*	*	*	*	*	*	*	*	*	*	*	*rep	*	*	*	*	*	*	*
8C#/	.	4A\	nec	.	4c#\	nec	.	4a\	nec	.	4ee\	nec	.	16g/LL	.	8.ee\L	.	4a/	.	4ee\	.
.	.	.	.	.	.	.	.	.	.	.	.	.	.	16a/	.	.	.	.	.	.	.
8AA/	.	.	.	.	.	.	.	.	.	.	.	.	.	16g/	.	.	.	.	.	.	.
.	.	.	.	.	.	.	.	.	.	.	.	.	.	16a/JJ	.	16ff#\	.	.	.	.	.
*	*	*	*	*	*	*	*	*	*	*	*	*	*	*Xrep	*	*	*	*	*	*	*
*	*	*	*	*	*	*	*	*	*	*	*	*	*	*rep	*	*	*	*	*	*	*
8C#/	.	4A\	lau-	.	4c#\	lau-	.	4a\	lau-	.	4ee\	Lau-	.	16g/LL	.	8.gg\	.	4r	.	4r	.
.	.	.	.	.	.	.	.	.	.	.	.	.	.	16a/	.	.	.	.	.	.	.
8AA/J	.	.	.	.	.	.	.	.	.	.	.	.	.	16g/	.	.	.	.	.	.	.
.	.	.	.	.	.	.	.	.	.	.	.	.	.	16a/JJ	.	16aa\Jk	.	.	.	.	.
*	*	*	*	*	*	*	*	*	*	*	*	*	*	*Xrep	*	*	*	*	*	*	*
=60	=60	=60	=60	=60	=60	=60	=60	=60	=60	=60	=60	=60	=60	=60	=60	=60	=60	=60	=60	=60	=60
!LO:LB:g=original	!	!	!	!	!	!	!	!LO:LB:g=original	!	!	!	!	!	!	!	!	!	!	!	!	!
8d\L	.	4d\	-da-	.	2d\	-da-	.	4a\	-da-	.	4ff#\	-da-	.	16f#/LL	.	8ff#\	.	2f#/	.	2dd\	.
.	.	.	.	.	.	.	.	.	.	.	.	.	.	16a/	.	.	.	.	.	.	.
8D\	.	.	.	.	.	.	.	.	.	.	.	.	.	16f#/	.	4aa\	.	.	.	.	.
.	.	.	.	.	.	.	.	.	.	.	.	.	.	16a/JJ	.	.	.	.	.	.	.
*	*	*	*	*	*	*	*	*	*	*	*	*	*	*rep	*	*	*	*	*	*	*
8F#\	.	4D\	-re	.	.	.	.	4a\	-re	.	4ff#\	-re	.	16f#/LL	.	.	.	.	.	.	.
.	.	.	.	.	.	.	.	.	.	.	.	.	.	16a/	.	.	.	.	.	.	.
8D\	.	.	.	.	.	.	.	.	.	.	.	.	.	16f#/	.	4ddd\	.	.	.	.	.
.	.	.	.	.	.	.	.	.	.	.	.	.	.	16a/JJ	.	.	.	.	.	.	.
*	*	*	*	*	*	*	*	*	*	*	*	*	*	*Xrep	*	*	*	*	*	*	*
*	*	*	*	*	*	*	*	*	*	*	*	*	*	*rep	*	*	*	*	*	*	*
8F#\	.	4r	.	.	4d\	-re	.	4r	.	.	4r	.	.	16f#/LL	.	.	.	4dd\	.	4ff#\	.
.	.	.	.	.	.	.	.	.	.	.	.	.	.	16a/	.	.	.	.	.	.	.
8D\J	.	.	.	.	.	.	.	.	.	.	.	.	.	16f#/	.	8ff#\	.	.	.	.	.
.	.	.	.	.	.	.	.	.	.	.	.	.	.	16a/JJ	.	.	.	.	.	.	.
*	*	*	*	*	*	*	*	*	*	*	*	*	*	*Xrep	*	*	*	*	*	*	*
=61	=61	=61	=61	=61	=61	=61	=61	=61	=61	=61	=61	=61	=61	=61	=61	=61	=61	=61	=61	=61	=61
!LO:TX:a:t=problem:mixed beam	!	!	!	!	!	!	!	!	!	!	!LO:TX:a:t=problem:repetycja tt. 69-60	!	!	!	!	!LO:LB:g=original	!	!	!	!	!
8A\L	.	4r	.	.	4r	.	.	4r	.	.	4ryy	.	.	16g/LL	.	4ff#\	.	4dd\	.	4ff#\	.
.	.	.	.	.	.	.	.	.	.	.	.	.	.	16a/	.	.	.	.	.	.	.
8AA/	.	.	.	.	.	.	.	.	.	.	.	.	.	16g/	.	.	.	.	.	.	.
.	.	.	.	.	.	.	.	.	.	.	.	.	.	16a/JJ	.	.	.	.	.	.	.
*	*	*	*	*	*	*	*	*	*	*	*	*	*	*rep	*	*	*	*	*	*	*
8C#/	.	4A\	nec	.	4c#\	nec-	.	4a\	nec-	.	4ee\yy	nec-	.	16g/LL	.	8.ee\L	.	4a/	.	4ee\	.
.	.	.	.	.	.	.	.	.	.	.	.	.	.	16a/	.	.	.	.	.	.	.
8AA/	.	.	.	.	.	.	.	.	.	.	.	.	.	16g/	.	.	.	.	.	.	.
.	.	.	.	.	.	.	.	.	.	.	.	.	.	16a/JJ	.	16ff#\	.	.	.	.	.
*	*	*	*	*	*	*	*	*	*	*	*	*	*	*Xrep	*	*	*	*	*	*	*
*	*	*	*	*	*	*	*	*	*	*	*	*	*	*rep	*	*	*	*	*	*	*
8C#/	.	4A\	lau-	.	4c#\	-lau-	.	4a\	-lau-	.	4ee\yy	-Lau-	.	16g/LL	.	8.gg\	.	4r	.	4r	.
.	.	.	.	.	.	.	.	.	.	.	.	.	.	16a/	.	.	.	.	.	.	.
8AA/J	.	.	.	.	.	.	.	.	.	.	.	.	.	16g/	.	.	.	.	.	.	.
.	.	.	.	.	.	.	.	.	.	.	.	.	.	16a/JJ	.	16aa\Jk	.	.	.	.	.
*	*	*	*	*	*	*	*	*	*	*	*	*	*	*Xrep	*	*	*	*	*	*	*
=62	=62	=62	=62	=62	=62	=62	=62	=62	=62	=62	=62	=62	=62	=62	=62	=62	=62	=62	=62	=62	=62
!	!	!	!	!	!LO:LB:g=original	!	!	!	!	!	!	!	!	!LO:TX:a:t=problem:mixed beam	!	!	!	!LO:LB:g=original	!	!LO:LB:g=original	!
8D/L	.	4d\	-da-	.	4d\	-da-	.	4a\	-da-	.	4ff#\yy	-da-	.	16d/LL	.	4d/ 4a 4ff#	.	4f#/	.	4dd\	.
.	.	.	.	.	.	.	.	.	.	.	.	.	.	16dd\	.	.	.	.	.	.	.
8AA/	.	.	.	.	.	.	.	.	.	.	.	.	.	16d/	.	.	.	.	.	.	.
.	.	.	.	.	.	.	.	.	.	.	.	.	.	16dd\JJ	.	.	.	.	.	.	.
*	*	*	*	*	*	*	*	*	*	*	*	*	*	*rep	*	*	*	*	*	*	*
!	!	!	!	!	!	!	!	!	!	!	!	!	!	!LO:TX:a:t=problem:mixed beam	!	!	!	!	!	!	!
8F#/	.	4D\	-re	.	4d\	-re	.	4a\	-re	.	4ff#\yy	-re	.	16d/LL	.	4d/ 4a 4aa	.	4f#/	.	4dd\	.
.	.	.	.	.	.	.	.	.	.	.	.	.	.	16dd\	.	.	.	.	.	.	.
8D/	.	.	.	.	.	.	.	.	.	.	.	.	.	16d/	.	.	.	.	.	.	.
.	.	.	.	.	.	.	.	.	.	.	.	.	.	16dd\JJ	.	.	.	.	.	.	.
*	*	*	*	*	*	*	*	*	*	*	*	*	*	*Xrep	*	*	*	*	*	*	*
*	*	*	*	*	*	*	*	*	*	*	*	*	*	*rep	*	*	*	*	*	*	*
!	!	!	!	!	!	!	!	!	!	!	!	!	!	!LO:TX:a:t=problem:mixed beam	!	!	!	!	!	!	!
8A/	.	4r	.	.	4r	.	.	4r	.	.	4ryy	.	.	16d/LL	.	4r	.	4r	.	4r	.
.	.	.	.	.	.	.	.	.	.	.	.	.	.	16dd\	.	.	.	.	.	.	.
8F#/J	.	.	.	.	.	.	.	.	.	.	.	.	.	16d/	.	.	.	.	.	.	.
.	.	.	.	.	.	.	.	.	.	.	.	.	.	16dd\JJ	.	.	.	.	.	.	.
*	*	*	*	*	*	*	*	*	*	*	*	*	*	*Xrep	*	*	*	*	*	*	*
=63	=63	=63	=63	=63	=63	=63	=63	=63	=63	=63	=63	=63	=63	=63	=63	=63	=63	=63	=63	=63	=63
!	!	!LO:LB:g=original	!	!	!	!	!	!	!	!	!	!	!	!LO:LB:g=original	!	!	!	!	!	!	!
!	!	!	!	!	!	!	!	!	!	!	!	!	!	!LO:TX:a:t=problem:mixed beam	!	!	!	!	!	!	!
8D/L	.	8B\	suf-	.	8d\	suf-	.	8b\	suf-	.	8gg\	suf-	.	16d/LL	.	4d\ 4b 4gg	.	4d/	.	4dd\	.
.	.	.	.	.	.	.	.	.	.	.	.	.	.	16dd\	.	.	.	.	.	.	.
8BB/	.	8B\	-fi-	.	8d\	-fi-	.	8b\	-fi-	.	8gg\	-fi-	.	16d/	.	.	.	.	.	.	.
.	.	.	.	.	.	.	.	.	.	.	.	.	.	16dd\JJ	.	.	.	.	.	.	.
*	*	*	*	*	*	*	*	*	*	*	*	*	*	*rep	*	*	*	*	*	*	*
!	!	!	!	!	!	!	!	!	!	!	!	!	!	!LO:TX:a:t=problem:mixed beam	!	!	!	!	!	!	!
8G/	.	4B\	-cis	.	4d\	-cis	.	4b\	-cis	.	4gg\	-cis	.	16d/LL	.	4d/ 4b 4bb	.	4d/	.	4dd\	.
.	.	.	.	.	.	.	.	.	.	.	.	.	.	16dd\	.	.	.	.	.	.	.
8D/	.	.	.	.	.	.	.	.	.	.	.	.	.	16d/	.	.	.	.	.	.	.
.	.	.	.	.	.	.	.	.	.	.	.	.	.	16dd\JJ	.	.	.	.	.	.	.
*	*	*	*	*	*	*	*	*	*	*	*	*	*	*Xrep	*	*	*	*	*	*	*
*	*	*	*	*	*	*	*	*	*	*	*	*	*	*rep	*	*	*	*	*	*	*
!	!	!	!	!	!	!	!	!	!	!	!	!	!	!LO:TX:a:t=problem:mixed beam	!	!	!	!	!	!	!
8B/	.	4r	.	.	4r	.	.	4r	.	.	4r	.	.	16d/LL	.	4r	.	4r	.	4r	.
.	.	.	.	.	.	.	.	.	.	.	.	.	.	16dd\	.	.	.	.	.	.	.
8G/J	.	.	.	.	.	.	.	.	.	.	.	.	.	16d/	.	.	.	.	.	.	.
.	.	.	.	.	.	.	.	.	.	.	.	.	.	16dd\JJ	.	.	.	.	.	.	.
*	*	*	*	*	*	*	*	*	*	*	*	*	*	*Xrep	*	*	*	*	*	*	*
=64	=64	=64	=64	=64	=64	=64	=64	=64	=64	=64	=64	=64	=64	=64	=64	=64	=64	=64	=64	=64	=64
!	!	!	!	!	!	!	!	!	!	!	!	!	!	!LO:TX:a:t=problem:mixed beam	!	!	!	!	!	!	!
8D/L	.	8F#\	suf-	.	8d\	suf-	.	8ccn\	suf-	.	8aa\	suf-	.	16d/LL	.	4d/ 4a 4aa	.	4d/	.	4dd\	.
.	.	.	.	.	.	.	.	.	.	.	.	.	.	16dd\	.	.	.	.	.	.	.
8AA/	.	8F#\	-fi-	.	8d\	-fi-	.	8cc\	-fi-	.	8aa\	-fi-	.	16d/	.	.	.	.	.	.	.
.	.	.	.	.	.	.	.	.	.	.	.	.	.	16dd\JJ	.	.	.	.	.	.	.
*	*	*	*	*	*	*	*	*	*	*	*	*	*	*rep	*	*	*	*	*	*	*
!	!	!	!	!	!	!	!	!	!	!	!	!	!	!LO:TX:a:t=problem:mixed beam	!	!	!	!	!	!	!
8F#/	.	4F#\	-cis	.	4d\	-cis	.	4cc\	-cis	.	4aa\	-cis	.	16d/LL	.	4d/ 4a 4cccn	.	4d/	.	4dd\	.
.	.	.	.	.	.	.	.	.	.	.	.	.	.	16dd\	.	.	.	.	.	.	.
8D/	.	.	.	.	.	.	.	.	.	.	.	.	.	16d/	.	.	.	.	.	.	.
.	.	.	.	.	.	.	.	.	.	.	.	.	.	16dd\JJ	.	.	.	.	.	.	.
*	*	*	*	*	*	*	*	*	*	*	*	*	*	*Xrep	*	*	*	*	*	*	*
*	*	*	*	*	*	*	*	*	*	*	*	*	*	*rep	*	*	*	*	*	*	*
!	!	!	!	!	!	!	!	!	!	!	!	!	!	!LO:TX:a:t=problem:mixed beam	!	!	!	!	!	!	!
8A/	.	4r	.	.	4r	.	.	4r	.	.	4r	.	.	16d/LL	.	4r	.	4r	.	4r	.
.	.	.	.	.	.	.	.	.	.	.	.	.	.	16dd\	.	.	.	.	.	.	.
8F#/J	.	.	.	.	.	.	.	.	.	.	.	.	.	16d/	.	.	.	.	.	.	.
.	.	.	.	.	.	.	.	.	.	.	.	.	.	16dd\JJ	.	.	.	.	.	.	.
*	*	*	*	*	*	*	*	*	*	*	*	*	*	*Xrep	*	*	*	*	*	*	*
=65	=65	=65	=65	=65	=65	=65	=65	=65	=65	=65	=65	=65	=65	=65	=65	=65	=65	=65	=65	=65	=65
!	!	!LO:N:vis=00	!	!	!LO:N:vis=0	!	!	!LO:LB:g=original	!	!	!	!	!	!	!	!	!LO:DY:t=piano	!LO:N:vis=00	!	!LO:N:vis=00	!
!	!LO:DY:t=pia	!	!	!	!	!	!	!LO:N:vis=0	!	!	!	!	!	!	!	!	!	!	!	!	!
4G'\	p	0.r	.	.	1.r	.	.	1.r	.	.	2.r	.	.	4d/	.	(2.bb\	p	0.r	.	0.r	.
4G'\	.	.	.	.	.	.	.	.	.	.	.	.	.	4dd'\	p	.	.	.	.	.	.
4G'\	.	.	.	.	.	.	.	.	.	.	.	.	.	4dd'\	.	.	.	.	.	.	.
=66	=66	=66	=66	=66	=66	=66	=66	=66	=66	=66	=66	=66	=66	=66	=66	=66	=66	=66	=66	=66	=66
!LO:LB:g=original	!	!	!	!	!	!	!	!	!	!	!LO:LB:g=original	!	!	!	!	!	!	!	!	!	!
4r	.	.	.	.	.	.	.	.	.	.	4r	.	.	4r	.	2.dd#X\	.	.	.	.	.
!	!	!	!	!	!	!	!	!	!	!	!	!	!LO:DY:t=piano	!	!	!	!	!	!	!	!
!	!	!	!	!	!	!	!	!	!	!	!	!	!LO:DY:b	!	!	!	!	!	!	!	!
4F#'\	.	.	.	.	.	.	.	.	.	.	4dd#X\	nec	p	4ccn'\	.	.	.	.	.	.	.
4F#'\	.	.	.	.	.	.	.	.	.	.	4dd#\	lau-	.	4cc'\	.	.	.	.	.	.	.
=67	=67	=67	=67	=67	=67	=67	=67	=67	=67	=67	=67	=67	=67	=67	=67	=67	=67	=67	=67	=67	=67
4r	.	.	.	.	4r	.	.	2.r	.	.	2.ee\	-da-	.	4r	.	2.ee\	.	.	.	.	.
!	!	!	!	!	!	!	!LO:DY:t=piano	!	!	!	!	!	!	!	!	!	!	!	!	!	!
4G'\	.	.	.	.	4B\	nec	p	.	.	.	.	.	.	4b'\	.	.	.	.	.	.	.
4G'\	.	.	.	.	4B\	lau-	.	.	.	.	.	.	.	4b'\	.	.	.	.	.	.	.
=68	=68	=68	=68	=68	=68	=68	=68	=68	=68	=68	=68	=68	=68	=68	=68	=68	=68	=68	=68	=68	=68
!	!	!	!	!	!LO:LB:g=original	!	!	!	!	!LO:DY:b	!	!	!	!	!	!	!	!	!	!	!
!	!	!	!	!	!	!	!	!	!	!LO:DY:t=pia	!	!	!	!	!	!	!	!	!	!	!
4r	.	.	.	.	2.B\	-da-	.	2e\	nec	p	2.gg\	.	.	4r	.	2.gg\	.	.	.	.	.
4E'\	.	.	.	.	.	.	.	.	.	.	.	.	.	4b'\	.	.	.	.	.	.	.
4E'\	.	.	.	.	.	.	.	4e\	lau-	.	.	.	.	4b'\	.	.	.	.	.	.	.
=69	=69	=69	=69	=69	=69	=69	=69	=69	=69	=69	=69	=69	=69	=69	=69	=69	=69	=69	=69	=69	=69
!	!	!LO:N:vis=0	!	!	!	!	!	!	!	!	!	!	!	!	!	!	!	!	!	!	!
4r	.	1.r	.	.	2.A\	.	.	2.d\	-da-	.	2.ff#\	.	.	4r	.	2.ff#\	.	2.r	.	2.r	.
4A'\	.	.	.	.	.	.	.	.	.	.	.	.	.	4d'>/ 4a	.	.	.	.	.	.	.
4A'\	.	.	.	.	.	.	.	.	.	.	.	.	.	4d'>/ 4a	.	.	.	.	.	.	.
=70	=70	=70	=70	=70	=70	=70	=70	=70	=70	=70	=70	=70	=70	=70	=70	=70	=70	=70	=70	=70	=70
4r	.	.	.	.	2.G\	.	.	2.e\	.	.	2.cc#\	.	.	4r	.	2.cc#X\)	.	2.a/	p	2.a/	p
4AA'/	.	.	.	.	.	.	.	.	.	.	.	.	.	4A'>/ 4e	.	.	.	.	.	.	.
4AA'/	.	.	.	.	.	.	.	.	.	.	.	.	.	4A'>/ 4e	.	.	.	.	.	.	.
=71	=71	=71	=71	=71	=71	=71	=71	=71	=71	=71	=71	=71	=71	=71	=71	=71	=71	=71	=71	=71	=71
*	*	*	*	*	*	*	*	*	*	*	*	*	*	*tremolo	*	*	*	*	*	*	*
!	!	!	!	!	!	!	!	!	!	!	!	!	!	!LO:LB:g=original	!	!LO:LB:g=original	!	!	!	!	!
!LO:TX:a:t=problem:mixed beam	!	!	!	!	!	!	!	!	!	!	!	!	!	!	!	!LO:TX:a:t=problem:mixed beam	!	!	!	!	!
8d\L	f	4r	.	.	4F#/	-re	.	4d\	-re	.	4dd\	-re	.	16A/LL 16f#	f	8dd'\L	f	4f#/	f	4dd\	f
.	.	.	.	.	.	.	.	.	.	.	.	.	.	16A/ 16f#	.	.	.	.	.	.	.
8D/	.	.	.	.	.	.	.	.	.	.	.	.	.	16A/ 16f#	.	8d'/	.	.	.	.	.
.	.	.	.	.	.	.	.	.	.	.	.	.	.	16A/ 16f#	.	.	.	.	.	.	.
8F#/	.	4d\	nec	.	4r	.	.	4r	.	.	4r	.	.	16A/ 16f#	.	8f#'/	.	4f#/	.	4dd\	.
.	.	.	.	.	.	.	.	.	.	.	.	.	.	16A/ 16f#	.	.	.	.	.	.	.
8D/	.	.	.	.	.	.	.	.	.	.	.	.	.	16A/ 16f#	.	8d'/	.	.	.	.	.
.	.	.	.	.	.	.	.	.	.	.	.	.	.	16A/ 16f#	.	.	.	.	.	.	.
8A/	.	4d\	lau-	.	4r	.	.	4r	.	.	4r	.	.	16A/ 16f#	.	8a'/	.	4f#/	.	4dd\	.
.	.	.	.	.	.	.	.	.	.	.	.	.	.	16A/ 16f#	.	.	.	.	.	.	.
8F#/J	.	.	.	.	.	.	.	.	.	.	.	.	.	16A/ 16f#	.	8f#'/J	.	.	.	.	.
.	.	.	.	.	.	.	.	.	.	.	.	.	.	16A/JJ 16f#	.	.	.	.	.	.	.
=72	=72	=72	=72	=72	=72	=72	=72	=72	=72	=72	=72	=72	=72	=72	=72	=72	=72	=72	=72	=72	=72
*	*	*	*	*	*	*	*	*	*	*	*	*	*	*^	*	*	*	*	*	*	*
*	*	*	*	*	*	*	*	*	*	*	*	*	*	*	*tremolo	*	*	*	*	*	*	*
8d\L	.	2d\	-da-	.	4r	.	.	4r	.	.	4r	.	.	16f#\LL	16a/LL	.	8dd\L	.	4f#/	.	4dd\	.
.	.	.	.	.	.	.	.	.	.	.	.	.	.	16f#\	16a/	.	.	.	.	.	.	.
8A\	.	.	.	.	.	.	.	.	.	.	.	.	.	16f#\	16a/	.	8a\	.	.	.	.	.
.	.	.	.	.	.	.	.	.	.	.	.	.	.	16f#\	16a/	.	.	.	.	.	.	.
!	!	!	!	!	!	!	!	!	!	!LO:DY:b	!	!	!LO:DY:t=forte	!	!	!	!	!	!	!	!	!
!	!	!	!	!	!	!	!LO:DY:t=forte	!	!	!LO:DY:t=forte	!	!	!LO:DY:b	!	!	!	!	!	!	!	!	!
8F#\	.	.	.	.	4d\	nec	f	4a\	nec	f	4ff#\	nec	f	16f#\	16a/	.	8ff#\	.	4f#/	.	4dd\	.
.	.	.	.	.	.	.	.	.	.	.	.	.	.	16f#\	16a/	.	.	.	.	.	.	.
8D\J	.	.	.	.	.	.	.	.	.	.	.	.	.	16f#\	16a/	.	8dd\	.	.	.	.	.
.	.	.	.	.	.	.	.	.	.	.	.	.	.	16f#\	16a/	.	.	.	.	.	.	.
8A\L	.	4d\	-re	.	4d\	lau-	.	4a\	lau-	.	4ff#\	lau-	.	16f#\	16a/	.	8aa\	.	4f#/	.	4dd\	.
.	.	.	.	.	.	.	.	.	.	.	.	.	.	16f#\	16a/	.	.	.	.	.	.	.
8F#\J	.	.	.	.	.	.	.	.	.	.	.	.	.	16f#\	16a/	.	8ff#\J	.	.	.	.	.
.	.	.	.	.	.	.	.	.	.	.	.	.	.	16f#\JJ	16a/JJ	.	.	.	.	.	.	.
=73	=73	=73	=73	=73	=73	=73	=73	=73	=73	=73	=73	=73	=73	=73	=73	=73	=73	=73	=73	=73	=73	=73
!LO:LB:g=original	!	!LO:LB:g=original	!	!	!	!	!	!	!	!	!	!	!	!	!	!	!LO:TX:a:t=problem:mixed beam	!	!	!	!	!
!LO:TX:a:t=problem:mixed beam	!	!	!	!	!	!	!	!	!	!	!	!	!	!	!	!	!	!	!	!	!	!
8d\L	.	2d\	nec	.	2d\	-da-	.	2a\	-da-	.	2ff#\	-da-	.	16f#\LL	16a/LL	.	8dd'\L	.	4f#/	.	4dd\	.
.	.	.	.	.	.	.	.	.	.	.	.	.	.	16f#\	16a/	.	.	.	.	.	.	.
8D/	.	.	.	.	.	.	.	.	.	.	.	.	.	16f#\	16a/	.	8d'/	.	.	.	.	.
.	.	.	.	.	.	.	.	.	.	.	.	.	.	16f#\	16a/	.	.	.	.	.	.	.
8F#/	.	.	.	.	.	.	.	.	.	.	.	.	.	16f#\	16a/	.	8f#'/	.	4f#/	.	4dd\	.
.	.	.	.	.	.	.	.	.	.	.	.	.	.	16f#\	16a/	.	.	.	.	.	.	.
8D/	.	.	.	.	.	.	.	.	.	.	.	.	.	16f#\	16a/	.	8d'/	.	.	.	.	.
.	.	.	.	.	.	.	.	.	.	.	.	.	.	16f#\	16a/	.	.	.	.	.	.	.
8A/	.	4d\	lau-	.	4d\	-re	.	4a\	-re	.	4ff#\	-re	.	16f#\	16a/	.	8a'/	.	4f#/	.	4dd\	.
.	.	.	.	.	.	.	.	.	.	.	.	.	.	16f#\	16a/	.	.	.	.	.	.	.
8F#/J	.	.	.	.	.	.	.	.	.	.	.	.	.	16f#\	16a/	.	8f#'/J	.	.	.	.	.
.	.	.	.	.	.	.	.	.	.	.	.	.	.	16f#\JJ	16a/JJ	.	.	.	.	.	.	.
=74	=74	=74	=74	=74	=74	=74	=74	=74	=74	=74	=74	=74	=74	=74	=74	=74	=74	=74	=74	=74	=74	=74
!	!	!	!	!	!LO:LB:g=original	!	!	!LO:LB:g=original	!	!	!LO:LB:g=original	!	!	!	!	!	!	!	!	!	!	!
8d\L	.	4d\	-da-	.	2d\	suf-	.	2a\	suf-	.	2ff#\	suf-	.	16f#\LL	16a/LL	.	8dd\L	.	4f#/	.	4dd\	.
.	.	.	.	.	.	.	.	.	.	.	.	.	.	16f#\	16a/	.	.	.	.	.	.	.
8A\	.	.	.	.	.	.	.	.	.	.	.	.	.	16f#\	16a/	.	8a\	.	.	.	.	.
.	.	.	.	.	.	.	.	.	.	.	.	.	.	16f#\	16a/	.	.	.	.	.	.	.
8F#\	.	4d\	-re	.	.	.	.	.	.	.	.	.	.	16f#\	16a/	.	8ff#\	.	4f#/	.	4dd\	.
.	.	.	.	.	.	.	.	.	.	.	.	.	.	16f#\	16a/	.	.	.	.	.	.	.
8D\	.	.	.	.	.	.	.	.	.	.	.	.	.	16f#\	16a/	.	8dd\	.	.	.	.	.
.	.	.	.	.	.	.	.	.	.	.	.	.	.	16f#\	16a/	.	.	.	.	.	.	.
8A\	.	8.d\	suf-	.	4d\	-fi-	.	4a\	-fi-	.	4ff#\	-fi-	.	16f#\	16a/	.	8aa\	.	4f#/	.	4dd\	.
.	.	.	.	.	.	.	.	.	.	.	.	.	.	16f#\	16a/	.	.	.	.	.	.	.
8F#\J	.	.	.	.	.	.	.	.	.	.	.	.	.	16f#\	16a/	.	8ff#\J	.	.	.	.	.
.	.	16d\	-fi-	.	.	.	.	.	.	.	.	.	.	16f#\JJ	16a/JJ	.	.	.	.	.	.	.
*	*	*	*	*	*	*	*	*	*	*	*	*	*	*v	*v	*	*	*	*	*	*	*
*	*	*	*	*	*	*	*	*	*	*	*	*	*	*	*	*	*	*	*	*	*
=75	=75	=75	=75	=75	=75	=75	=75	=75	=75	=75	=75	=75	=75	=75	=75	=75	=75	=75	=75	=75	=75
*	*	*	*	*	*	*	*	*	*	*	*	*	*	*^	*	*	*	*	*	*	*
!LO:TX:a:t=problem:mixed beam	!	!	!	!	!	!	!	!	!	!	!	!	!	!	!	!	!	!	!	!	!	!
8d\L	.	4d\	-cis	.	4d\	-cis	.	4a\	-cis	.	4ff#\	-cis	.	4f#\	4a/	.	4dd\	.	4f#/	.	4dd\	.
8D/	.	.	.	.	.	.	.	.	.	.	.	.	.	.	.	.	.	.	.	.	.	.
8F#/	.	4r	.	.	4r	.	.	4r	.	.	4r	.	.	4d/ 4a 4ff#	4ryy	.	4d\ 4a 4ddd	.	8f#/L	.	8dd\L	.
8D/	.	.	.	.	.	.	.	.	.	.	.	.	.	.	.	.	.	.	8f#/	.	8dd\	.
8A/	.	4r	.	.	4r	.	.	4r	.	.	4r	.	.	4d/ 4a 4ff#	4ryy	.	4d\ 4a 4ddd	.	8f#/	.	8dd\	.
8F#J	.	.	.	.	.	.	.	.	.	.	.	.	.	.	.	.	.	.	8f#/J	.	8dd\J	.
*	*	*	*	*	*	*	*	*	*	*	*	*	*	*v	*v	*	*	*	*	*	*	*
=76	=76	=76	=76	=76	=76	=76	=76	=76	=76	=76	=76	=76	=76	=76	=76	=76	=76	=76	=76	=76	=76
4D\	.	2.r	.	.	2.r	.	.	2.r	.	.	2.r	.	.	4d/ 4a 4ff#	.	4d\ 4a 4ddd	.	4f#/	.	4dd\	.
4r	.	.	.	.	.	.	.	.	.	.	.	.	.	4r	.	4r	.	4r	.	4r	.
4r	.	.	.	.	.	.	.	.	.	.	.	.	.	4r	.	4r	.	4r	.	4r	.
==	==	==	==	==	==	==	==	==	==	==	==	==	==	==	==	==	==	==	==	==	==
*-	*-	*-	*-	*-	*-	*-	*-	*-	*-	*-	*-	*-	*-	*-	*-	*-	*-	*-	*-	*-	*-
!!!system-decoration: [g1][g2][g3]{g4}
!!!RDF**kern: >= above
!!!RDF**kern: <= below
!!!RDF**dynam: p = po:
!!!RDF**dynam: f = for
!!!ENC: Anna Matuszewska
!!!END: 2020-06-19
